ksvanhorn/stan/src/test/command/print_samples/print_ac1-2.csv
Lag,lp__,accept_stat__,stepsize__,treedepth__,mu,theta[1],theta[2],theta[3],theta[4],theta[5],theta[6],theta[7],theta[8],tau
0,1.000,1.000,1.000,1.000,1.000,1.000,1.000,1.000,1.000,1.000,1.000,1.000,1.000,1.000
1,0.864,0.426,1.000,0.335,0.533,0.484,0.450,0.477,0.503,0.392,0.464,0.556,0.441,0.652
2,0.761,0.362,1.000,0.274,0.412,0.364,0.254,0.252,0.251,0.238,0.325,0.397,0.222,0.528
3,0.679,0.323,1.000,0.215,0.326,0.301,0.213,0.162,0.158,0.158,0.300,0.314,0.102,0.420
4,0.612,0.330,1.000,0.239,0.252,0.217,0.162,0.145,0.169,0.119,0.235,0.294,0.036,0.365
5,0.559,0.292,1.000,0.212,0.190,0.225,0.155,0.100,0.165,0.083,0.183,0.258,0.035,0.343
6,0.509,0.273,1.000,0.184,0.150,0.174,0.111,0.068,0.087,0.082,0.136,0.216,0.009,0.297
7,0.468,0.260,1.000,0.162,0.146,0.149,0.122,0.018,0.060,0.062,0.097,0.251,-0.002,0.248
8,0.431,0.238,1.000,0.171,0.087,0.154,0.103,-0.006,0.058,0.025,0.082,0.260,0.018,0.216
9,0.406,0.220,1.000,0.222,0.128,0.163,0.048,0.014,0.090,0.031,0.038,0.252,0.045,0.216
10,0.391,0.232,1.000,0.143,0.074,0.111,0.028,0.044,0.052,0.027,0.059,0.245,0.009,0.223
11,0.375,0.209,1.000,0.141,0.040,0.120,0.027,0.049,-0.042,0.033,0.066,0.227,0.018,0.208
12,0.374,0.174,1.000,0.188,0.011,0.084,-0.017,0.001,-0.034,-0.010,0.028,0.216,0.025,0.198
13,0.366,0.222,1.000,0.145,0.005,0.071,0.027,-0.037,-0.006,0.040,0.062,0.132,0.047,0.194
14,0.359,0.234,1.000,0.183,0.008,0.022,0.038,-0.007,-0.005,0.038,0.095,0.096,0.093,0.205
15,0.333,0.223,1.000,0.133,0.022,0.032,0.031,-0.059,-0.010,0.049,0.090,0.101,0.037,0.189
16,0.303,0.200,1.000,0.152,0.037,0.033,0.025,-0.079,-0.026,0.074,0.067,0.151,0.046,0.154
17,0.282,0.212,1.000,0.127,0.020,0.029,0.013,-0.089,0.001,0.074,0.138,0.164,0.010,0.139
18,0.249,0.207,1.000,0.134,0.011,0.034,0.053,-0.045,0.022,0.045,0.109,0.157,0.010,0.118
19,0.217,0.119,1.000,0.115,0.018,0.065,0.014,-0.013,0.035,0.034,0.102,0.147,-0.046,0.077
20,0.171,0.139,1.000,0.098,0.014,0.063,-0.019,-0.001,-0.002,-0.013,0.093,0.110,-0.042,0.056
21,0.133,0.132,1.000,0.065,-0.007,0.064,0.042,-0.042,0.032,-0.032,0.064,0.120,0.014,0.007
22,0.096,0.101,1.000,0.133,0.030,0.050,0.031,-0.017,0.061,-0.022,0.032,0.119,0.041,-0.015
23,0.070,0.078,1.000,0.086,0.067,0.040,0.025,-0.015,0.094,-0.016,0.034,0.113,0.043,-0.033
24,0.059,0.073,1.000,0.067,0.061,0.012,0.024,-0.024,0.090,0.040,0.034,0.098,0.013,-0.038
25,0.058,0.076,1.000,0.031,0.090,0.023,0.030,-0.021,0.082,0.043,0.033,0.102,0.031,-0.026
26,0.051,0.090,1.000,0.032,0.077,0.026,0.078,0.003,0.070,0.063,0.021,0.105,0.029,-0.023
27,0.061,0.071,1.000,0.010,0.090,0.018,0.049,-0.010,0.093,0.009,0.005,0.162,0.015,-0.024
28,0.060,0.095,1.000,0.032,0.107,0.020,0.039,-0.002,0.125,-0.021,0.024,0.152,0.044,-0.006
29,0.047,0.079,1.000,0.040,0.091,0.014,0.050,-0.005,0.114,-0.014,0.020,0.160,0.039,0.025
30,0.038,0.078,1.000,-0.008,0.083,0.025,0.027,-0.033,0.072,-0.041,0.005,0.115,0.072,0.033
31,0.031,0.088,1.000,0.002,0.060,-0.017,0.039,-0.013,0.023,-0.048,0.028,0.103,0.057,0.034
32,0.024,0.060,1.000,0.040,0.054,-0.021,0.100,-0.036,0.032,-0.079,0.009,0.082,0.021,0.011
33,0.026,0.039,1.000,0.020,0.062,-0.011,0.078,-0.059,0.043,-0.051,0.048,0.080,0.023,0.013
34,0.035,0.034,1.000,0.046,0.060,0.047,0.052,0.010,0.037,-0.062,0.062,0.101,0.013,0.025
35,0.036,0.065,1.000,0.014,0.065,0.037,0.100,0.029,-0.003,-0.024,0.053,0.116,0.003,0.033
36,0.023,-0.001,1.000,0.022,0.077,0.038,0.076,0.006,-0.007,-0.001,0.044,0.101,-0.056,0.005
37,0.018,0.002,1.000,0.025,0.074,0.027,0.071,0.003,0.051,-0.048,0.055,0.058,-0.051,-0.014
38,0.007,-0.002,1.000,0.003,0.056,0.015,0.059,0.000,0.022,-0.026,0.046,0.083,-0.011,-0.029
39,0.009,-0.063,1.000,0.014,0.044,0.045,0.059,-0.017,0.012,-0.022,0.035,0.114,0.015,-0.018
40,0.013,-0.019,1.000,0.008,0.074,0.026,0.087,-0.018,0.007,-0.035,0.046,0.101,0.028,-0.003
41,0.004,-0.018,1.000,0.009,0.077,0.086,0.061,-0.008,0.055,0.001,0.024,0.085,0.003,0.004
42,-0.002,0.011,1.000,-0.015,0.048,0.063,0.065,0.005,0.049,-0.011,0.017,0.085,0.000,0.023
43,0.000,-0.026,1.000,-0.013,0.026,0.049,0.010,-0.008,0.000,-0.040,0.012,0.091,-0.026,0.022
44,0.008,0.004,1.000,-0.042,0.036,0.039,-0.020,0.027,-0.002,-0.031,-0.000,0.091,-0.033,0.075
45,0.014,0.003,1.000,-0.006,0.058,0.061,-0.003,0.086,0.032,-0.036,0.053,0.103,-0.041,0.081
46,0.017,-0.040,1.000,-0.055,0.065,0.074,0.018,0.089,0.073,-0.023,0.065,0.090,-0.006,0.060
47,0.018,-0.051,1.000,-0.028,0.075,0.050,0.012,0.073,0.076,-0.047,0.026,0.126,0.021,-0.004
48,0.015,0.006,1.000,-0.050,0.090,0.068,0.037,0.073,0.057,-0.060,0.022,0.123,0.056,-0.009
49,-0.004,-0.039,1.000,-0.048,0.060,0.056,0.025,0.043,0.061,-0.018,0.010,0.058,0.064,-0.016
50,-0.018,-0.017,1.000,-0.048,0.100,0.053,0.049,0.023,0.071,-0.017,0.052,0.081,0.013,-0.007
51,-0.021,-0.028,1.000,-0.027,0.089,0.029,0.017,0.023,0.080,-0.045,0.088,0.063,0.045,0.008
52,-0.014,-0.054,1.000,-0.047,0.093,-0.000,0.012,0.008,0.103,-0.039,0.030,0.046,0.046,-0.008
53,0.000,-0.070,1.000,-0.058,0.095,-0.017,0.063,0.003,0.086,-0.062,0.028,0.036,-0.009,0.002
54,0.000,-0.077,1.000,-0.013,0.076,-0.009,0.042,-0.035,0.048,-0.076,0.067,0.050,-0.019,-0.001
55,-0.003,-0.067,1.000,-0.064,0.069,-0.025,0.045,-0.025,0.092,-0.060,0.050,0.073,0.020,-0.010
56,-0.036,-0.056,1.000,0.005,0.034,-0.019,0.043,-0.035,0.118,-0.087,0.033,0.064,0.051,-0.058
57,-0.046,-0.027,1.000,-0.039,0.060,-0.030,0.020,-0.035,0.066,-0.069,0.036,0.031,0.001,-0.063
58,-0.044,-0.014,1.000,-0.080,0.033,-0.050,0.018,0.009,0.078,-0.100,0.049,0.031,-0.011,-0.052
59,-0.045,-0.008,1.000,-0.023,0.032,-0.044,0.063,-0.015,0.011,-0.057,0.071,0.039,0.016,-0.049
60,-0.039,-0.048,1.000,-0.093,-0.033,-0.032,0.014,-0.011,-0.039,-0.045,0.059,0.039,0.027,-0.021
61,-0.047,-0.038,1.000,-0.091,-0.042,-0.035,-0.008,-0.005,-0.030,-0.046,0.058,0.034,0.018,-0.033
62,-0.056,-0.058,1.000,-0.150,-0.012,-0.049,-0.035,-0.011,-0.037,-0.040,0.075,0.035,0.033,-0.022
63,-0.064,-0.037,1.000,-0.108,0.014,-0.042,-0.018,-0.006,-0.020,-0.046,0.088,0.037,0.041,-0.067
64,-0.067,-0.088,1.000,-0.125,0.023,-0.024,0.018,-0.023,-0.022,-0.031,0.018,0.037,0.061,-0.039
65,-0.076,-0.085,1.000,-0.128,0.010,0.010,0.007,-0.045,-0.013,-0.003,0.014,0.026,0.053,-0.086
66,-0.073,-0.093,1.000,-0.089,0.014,-0.055,0.033,-0.078,-0.035,-0.020,0.012,0.039,0.046,-0.060
67,-0.072,-0.088,1.000,-0.126,-0.027,-0.035,0.072,-0.076,-0.033,-0.010,0.013,0.026,0.015,-0.068
68,-0.075,-0.062,1.000,-0.098,-0.001,-0.002,0.081,-0.063,0.000,-0.014,0.013,0.030,-0.018,-0.061
69,-0.070,-0.024,1.000,-0.118,0.045,-0.011,0.091,-0.049,0.009,-0.032,0.032,0.040,0.008,-0.056
70,-0.076,-0.073,1.000,-0.097,0.046,0.003,0.066,-0.062,0.039,-0.045,0.017,0.081,-0.003,-0.046
71,-0.073,-0.057,1.000,-0.045,0.079,0.006,0.067,-0.013,0.059,-0.018,-0.007,0.095,-0.022,-0.055
72,-0.071,-0.075,1.000,-0.052,0.066,-0.027,0.081,0.022,0.086,0.011,0.007,0.080,-0.008,-0.062
73,-0.078,-0.046,1.000,-0.082,0.088,-0.029,0.090,0.013,0.089,0.000,0.051,0.044,0.063,-0.076
74,-0.078,-0.090,1.000,-0.147,0.097,-0.036,0.120,0.032,0.100,-0.007,0.022,0.050,0.060,-0.078
75,-0.073,-0.045,1.000,-0.062,0.076,-0.044,0.098,0.014,0.066,-0.045,0.052,0.039,0.003,-0.067
76,-0.073,-0.062,1.000,-0.076,0.067,-0.038,0.043,0.020,0.043,-0.011,0.064,0.051,-0.006,-0.079
77,-0.070,-0.050,1.000,-0.105,0.043,-0.060,0.058,0.012,0.030,-0.052,0.048,0.059,-0.007,-0.039
78,-0.082,-0.067,1.000,-0.098,0.041,-0.041,0.016,-0.027,0.039,0.016,-0.002,0.046,0.064,-0.067
79,-0.079,-0.000,1.000,-0.101,0.041,-0.067,0.002,0.019,-0.006,0.059,-0.006,0.068,0.040,-0.045
80,-0.063,-0.047,1.000,-0.045,0.019,-0.033,-0.016,0.040,-0.017,0.065,-0.024,0.059,0.024,-0.036
81,-0.046,-0.064,1.000,-0.009,0.030,-0.058,-0.015,0.013,-0.018,0.064,-0.023,0.097,0.039,-0.030
82,-0.028,-0.023,1.000,-0.067,-0.003,-0.056,0.033,0.016,-0.021,0.044,-0.008,0.090,0.026,-0.007
83,-0.018,-0.019,1.000,-0.050,-0.043,-0.057,-0.009,0.033,-0.041,-0.002,-0.018,0.070,-0.006,-0.010
84,-0.010,-0.007,1.000,-0.040,-0.068,-0.024,-0.043,0.061,-0.038,-0.007,-0.055,0.013,-0.095,-0.015
85,-0.004,-0.003,1.000,-0.021,-0.086,-0.041,-0.019,0.072,-0.011,0.010,-0.084,0.014,-0.092,0.001
86,0.010,0.018,1.000,-0.038,-0.098,-0.036,-0.005,0.034,-0.023,0.018,-0.082,0.038,-0.043,0.003
87,0.027,0.006,1.000,-0.002,-0.069,0.037,0.003,-0.001,-0.068,0.009,-0.051,0.037,-0.007,0.014
88,0.047,0.036,1.000,-0.005,-0.026,0.009,0.012,0.010,-0.086,0.023,-0.038,0.021,0.007,0.022
89,0.054,0.043,1.000,-0.037,-0.039,0.035,0.026,0.024,-0.063,0.057,-0.067,0.067,0.020,0.038
90,0.062,0.042,1.000,-0.040,-0.019,0.028,0.073,0.065,-0.032,0.066,-0.062,0.073,0.019,0.014
91,0.079,0.022,1.000,-0.040,-0.019,0.019,0.065,0.025,-0.008,0.041,-0.034,0.076,0.008,0.027
92,0.101,0.077,1.000,0.007,0.014,0.018,0.062,-0.037,-0.037,-0.028,-0.018,0.049,-0.004,0.021
93,0.119,0.048,1.000,0.032,0.033,0.029,0.059,0.014,0.005,-0.023,-0.004,0.073,-0.058,0.020
94,0.140,0.032,1.000,0.074,0.045,0.003,0.029,0.011,-0.027,0.003,0.003,0.026,0.001,0.073
95,0.152,0.049,1.000,0.040,0.018,0.013,0.037,-0.027,-0.021,0.067,0.044,0.040,0.051,0.085
96,0.160,0.068,1.000,-0.016,0.030,-0.027,0.010,-0.025,-0.037,0.087,0.049,0.032,0.037,0.085
97,0.173,0.092,1.000,0.028,0.060,-0.028,-0.037,-0.061,0.015,0.012,0.065,0.058,0.058,0.117
98,0.173,0.073,1.000,0.034,0.052,0.005,-0.028,-0.076,0.025,0.021,0.083,0.110,0.054,0.113
99,0.156,0.074,1.000,0.018,0.040,-0.001,-0.025,-0.112,0.022,-0.005,0.055,0.082,0.042,0.092
100,0.142,0.060,1.000,0.027,0.039,0.029,-0.002,-0.076,-0.000,-0.018,0.069,0.027,-0.008,0.089
101,0.140,0.093,1.000,0.043,0.011,0.003,-0.018,-0.069,-0.056,-0.008,0.081,-0.030,0.042,0.079
102,0.135,0.083,1.000,0.058,-0.017,-0.015,-0.050,-0.004,-0.047,-0.010,0.030,-0.003,0.018,0.053
103,0.120,0.095,1.000,0.071,-0.004,0.018,-0.009,0.027,-0.049,0.023,-0.033,-0.005,0.064,0.049
104,0.100,0.056,1.000,0.095,0.020,0.014,-0.027,-0.004,-0.048,0.049,-0.069,-0.025,0.054,0.046
105,0.097,0.069,1.000,0.045,0.007,0.024,-0.037,0.003,0.022,0.050,-0.052,-0.034,-0.029,0.035
106,0.097,0.062,1.000,0.097,-0.036,0.065,-0.022,-0.013,0.015,0.062,-0.044,0.005,-0.049,0.074
107,0.106,0.088,1.000,0.034,-0.020,-0.007,0.003,-0.002,0.015,0.020,-0.059,-0.011,-0.044,0.059
108,0.097,0.079,1.000,0.018,-0.032,0.013,0.021,0.009,0.010,-0.006,-0.012,0.021,0.037,0.046
109,0.090,0.060,1.000,0.051,-0.003,0.025,0.019,-0.066,-0.030,-0.005,-0.020,0.042,-0.003,0.025
110,0.081,0.099,1.000,0.042,-0.004,0.043,-0.032,-0.082,-0.003,-0.022,-0.014,0.063,-0.014,0.027
111,0.067,0.102,1.000,0.069,-0.042,0.026,-0.058,-0.039,-0.040,-0.043,0.006,0.034,0.018,0.023
112,0.073,0.082,1.000,0.111,-0.040,0.006,-0.091,-0.039,-0.078,-0.009,-0.004,0.028,-0.013,0.072
113,0.067,0.139,1.000,0.094,-0.069,0.013,-0.028,-0.025,-0.114,0.042,-0.014,-0.005,-0.032,0.050
114,0.065,0.095,1.000,0.021,-0.048,0.047,-0.015,0.002,-0.073,0.069,-0.003,0.010,-0.048,0.037
115,0.068,0.083,1.000,0.093,-0.080,0.058,-0.031,0.002,-0.047,0.028,0.008,0.028,-0.043,0.038
116,0.063,0.091,1.000,0.065,-0.055,-0.002,-0.071,0.048,-0.034,-0.006,-0.006,0.052,-0.056,0.045
117,0.059,0.124,1.000,0.083,-0.069,0.024,-0.060,0.041,-0.028,-0.039,-0.015,0.049,-0.030,0.035
118,0.041,0.132,1.000,0.055,-0.078,-0.020,-0.077,0.032,-0.025,-0.051,-0.016,0.049,-0.022,0.012
119,0.040,0.119,1.000,0.031,-0.073,-0.001,-0.076,0.023,-0.036,-0.047,-0.055,0.060,0.015,-0.006
120,0.046,0.105,1.000,0.118,-0.061,-0.004,-0.065,0.016,-0.034,0.003,-0.057,0.084,0.058,0.001
121,0.058,0.104,1.000,0.067,-0.036,0.004,-0.037,0.005,-0.061,0.017,-0.068,0.058,0.066,-0.000
122,0.074,0.089,1.000,0.064,-0.022,-0.007,0.007,0.038,-0.021,0.014,-0.071,0.017,0.076,0.040
123,0.077,0.086,1.000,0.037,0.009,-0.042,0.001,0.023,0.008,-0.027,-0.054,-0.030,0.063,0.040
124,0.086,0.061,1.000,0.063,0.034,-0.062,-0.004,0.018,0.014,0.003,-0.081,-0.012,0.011,0.042
125,0.074,0.067,1.000,0.062,-0.011,-0.018,-0.012,-0.008,0.035,0.002,-0.072,-0.002,0.055,0.037
126,0.078,0.066,1.000,0.062,0.009,0.011,-0.019,0.007,0.063,-0.000,-0.003,0.015,0.080,0.065
127,0.063,0.101,1.000,0.089,0.006,0.022,0.024,0.017,0.068,0.009,-0.056,0.053,0.008,0.046
128,0.057,0.075,1.000,0.066,0.022,0.048,0.019,0.002,0.038,-0.018,-0.047,0.054,-0.032,0.081
129,0.062,0.047,1.000,0.067,0.022,0.034,0.026,0.029,0.043,-0.008,-0.029,0.053,-0.058,0.062
130,0.069,0.092,1.000,0.032,-0.010,0.007,0.020,0.047,0.050,-0.027,-0.028,0.046,-0.077,0.077
131,0.066,0.070,1.000,0.065,-0.022,0.015,-0.013,0.055,0.085,0.017,-0.023,0.037,-0.060,0.066
132,0.061,0.072,1.000,0.040,-0.039,0.050,0.005,0.053,0.047,0.003,-0.046,0.033,-0.051,0.058
133,0.063,0.060,1.000,0.029,0.007,0.045,0.005,0.055,-0.002,0.021,0.020,0.021,-0.033,0.068
134,0.058,0.038,1.000,0.078,-0.024,0.059,-0.001,0.048,-0.048,-0.005,0.022,0.008,-0.014,0.057
135,0.054,0.035,1.000,0.088,-0.026,0.024,0.014,0.010,-0.010,0.004,-0.005,-0.025,-0.001,0.050
136,0.047,0.070,1.000,0.056,-0.062,0.039,0.007,0.008,0.013,-0.058,-0.007,-0.023,0.008,0.042
137,0.045,0.022,1.000,0.065,-0.017,0.066,-0.029,0.003,-0.009,-0.037,-0.015,0.011,0.059,0.037
138,0.028,-0.015,1.000,0.038,-0.000,0.057,-0.016,0.038,-0.020,-0.028,-0.052,-0.021,0.047,0.008
139,-0.002,0.009,1.000,0.039,0.024,0.070,0.003,0.038,0.016,-0.016,-0.079,-0.030,0.056,0.010
140,-0.019,-0.003,1.000,0.039,-0.003,0.073,-0.009,0.040,-0.000,-0.031,-0.089,-0.044,0.011,-0.005
141,-0.019,-0.011,1.000,0.016,-0.053,0.047,0.029,-0.012,-0.059,-0.050,-0.094,-0.027,-0.010,0.006
142,-0.023,0.005,1.000,0.018,-0.039,0.031,-0.006,-0.001,-0.117,-0.088,-0.094,-0.044,-0.003,0.015
143,-0.019,-0.013,1.000,0.071,-0.090,0.018,-0.053,-0.017,-0.076,-0.117,-0.081,-0.035,-0.012,0.027
144,-0.017,-0.022,1.000,0.067,-0.056,0.025,-0.073,-0.055,-0.022,-0.108,-0.037,-0.048,0.006,0.001
145,-0.022,0.003,1.000,0.099,-0.040,0.048,-0.005,-0.104,-0.022,-0.084,-0.034,-0.048,0.024,0.031
146,-0.034,0.008,1.000,0.036,-0.053,0.038,-0.039,-0.122,-0.053,-0.123,-0.061,-0.039,-0.012,0.027
147,-0.039,-0.013,1.000,0.068,-0.057,0.073,-0.073,-0.153,-0.070,-0.120,-0.041,-0.072,-0.043,0.016
148,-0.044,0.033,1.000,0.030,-0.064,0.075,-0.011,-0.065,-0.055,-0.106,-0.028,-0.100,-0.034,-0.005
149,-0.053,-0.030,1.000,0.017,-0.027,0.074,-0.002,-0.067,0.005,-0.101,-0.057,-0.084,-0.039,0.005
150,-0.069,-0.054,1.000,-0.021,-0.023,0.065,-0.013,-0.064,-0.010,-0.070,-0.065,-0.075,-0.045,-0.027
151,-0.080,-0.073,1.000,0.014,-0.009,0.018,-0.006,-0.095,-0.023,-0.018,-0.052,-0.071,0.023,-0.032
152,-0.091,-0.046,1.000,-0.016,-0.019,0.017,0.009,-0.044,0.001,0.000,-0.069,-0.113,-0.009,-0.037
153,-0.113,-0.037,1.000,0.004,-0.041,-0.012,0.004,-0.063,-0.017,-0.012,-0.059,-0.120,-0.011,-0.055
154,-0.122,-0.079,1.000,0.014,-0.057,-0.011,-0.015,-0.065,0.001,0.014,-0.026,-0.129,-0.001,-0.053
155,-0.125,-0.092,1.000,-0.073,-0.060,0.001,0.023,-0.116,-0.015,0.009,-0.044,-0.159,-0.007,-0.064
156,-0.111,-0.108,1.000,-0.018,-0.062,0.000,0.050,-0.114,-0.029,-0.018,-0.061,-0.187,-0.019,-0.060
157,-0.098,-0.078,1.000,-0.005,-0.081,-0.006,0.028,-0.124,-0.046,0.004,-0.028,-0.150,-0.025,-0.054
158,-0.102,-0.058,1.000,-0.005,-0.071,-0.001,0.003,-0.074,-0.082,0.008,-0.062,-0.144,-0.041,-0.047
159,-0.103,-0.091,1.000,0.032,-0.116,-0.040,-0.014,-0.093,-0.114,-0.023,-0.049,-0.127,-0.061,-0.032
160,-0.104,-0.106,1.000,0.015,-0.119,-0.019,-0.040,-0.079,-0.122,-0.030,-0.036,-0.137,-0.066,-0.049
161,-0.095,-0.057,1.000,-0.025,-0.082,-0.022,-0.046,-0.073,-0.113,-0.045,0.016,-0.144,-0.048,-0.033
162,-0.088,-0.045,1.000,-0.045,-0.056,-0.046,-0.010,-0.057,-0.079,-0.015,0.016,-0.158,-0.048,-0.037
163,-0.105,-0.042,1.000,0.015,-0.072,-0.079,-0.028,-0.038,-0.034,-0.013,-0.016,-0.167,-0.022,-0.055
164,-0.128,-0.076,1.000,-0.059,-0.048,-0.121,-0.011,0.006,-0.009,0.005,-0.003,-0.166,-0.039,-0.059
165,-0.144,-0.078,1.000,0.013,-0.042,-0.092,-0.023,0.040,-0.032,0.005,-0.018,-0.172,-0.015,-0.086
166,-0.158,-0.089,1.000,-0.030,-0.030,-0.079,-0.015,0.057,-0.042,0.026,-0.037,-0.158,-0.010,-0.097
167,-0.157,-0.097,1.000,-0.059,-0.008,-0.063,0.020,0.059,-0.021,0.026,-0.055,-0.146,0.027,-0.110
168,-0.148,-0.088,1.000,-0.043,0.005,-0.071,-0.014,0.087,0.012,-0.024,-0.041,-0.155,0.018,-0.111
169,-0.142,-0.071,1.000,-0.045,-0.003,-0.085,0.004,0.060,-0.005,0.010,-0.040,-0.124,0.016,-0.104
170,-0.129,-0.031,1.000,-0.075,0.006,-0.108,0.020,0.026,0.002,0.009,-0.028,-0.115,0.010,-0.069
171,-0.126,-0.063,1.000,-0.041,0.042,-0.097,0.018,0.022,-0.033,-0.017,0.016,-0.127,0.013,-0.057
172,-0.127,-0.076,1.000,-0.052,0.051,-0.134,0.018,0.045,-0.004,-0.034,-0.014,-0.140,0.017,-0.082
173,-0.129,-0.092,1.000,-0.046,0.043,-0.119,-0.007,-0.002,0.012,-0.016,0.020,-0.147,0.005,-0.093
174,-0.128,-0.066,1.000,-0.036,0.076,-0.079,0.003,0.029,0.003,-0.015,0.070,-0.155,0.030,-0.098
175,-0.131,-0.083,1.000,-0.031,0.051,-0.070,0.015,0.071,-0.006,-0.007,0.034,-0.147,0.017,-0.085
176,-0.123,-0.057,1.000,-0.042,0.038,-0.064,0.004,0.028,-0.021,-0.015,0.012,-0.130,-0.016,-0.068
177,-0.127,-0.108,1.000,-0.048,-0.003,-0.067,-0.005,0.002,-0.009,0.035,-0.008,-0.159,-0.010,-0.086
178,-0.136,-0.051,1.000,-0.046,-0.004,-0.079,0.032,-0.003,0.021,-0.013,-0.000,-0.170,-0.054,-0.101
179,-0.146,-0.078,1.000,-0.059,-0.021,-0.082,-0.027,0.021,0.011,0.000,-0.037,-0.171,-0.012,-0.098
180,-0.153,-0.050,1.000,-0.101,-0.040,-0.096,-0.021,-0.020,0.039,-0.000,-0.011,-0.152,-0.028,-0.100
181,-0.159,-0.076,1.000,-0.036,-0.067,-0.090,-0.011,-0.065,0.056,-0.003,-0.003,-0.146,-0.023,-0.096
182,-0.161,-0.102,1.000,-0.070,-0.094,-0.076,-0.027,-0.056,0.011,0.007,-0.035,-0.188,-0.042,-0.076
183,-0.161,-0.136,1.000,-0.065,-0.104,-0.085,-0.021,-0.057,-0.002,-0.008,-0.063,-0.200,-0.037,-0.067
184,-0.142,-0.111,1.000,-0.094,-0.141,-0.077,-0.027,-0.045,-0.037,-0.037,-0.023,-0.198,-0.020,-0.056
185,-0.139,-0.119,1.000,-0.072,-0.120,-0.083,-0.025,-0.050,-0.029,-0.018,-0.083,-0.211,-0.028,-0.029
186,-0.140,-0.112,1.000,-0.050,-0.133,-0.071,-0.071,-0.035,-0.029,-0.028,-0.100,-0.217,-0.022,-0.026
187,-0.135,-0.115,1.000,-0.011,-0.142,-0.065,-0.114,-0.035,-0.052,-0.039,-0.130,-0.190,-0.044,-0.059
188,-0.124,-0.130,1.000,-0.047,-0.144,-0.084,-0.118,-0.025,-0.047,-0.045,-0.060,-0.177,-0.071,-0.041
189,-0.111,-0.101,1.000,-0.066,-0.142,-0.094,-0.090,-0.003,-0.045,-0.087,-0.078,-0.163,0.002,-0.043
190,-0.096,-0.074,1.000,-0.052,-0.129,-0.079,-0.060,0.022,0.001,-0.028,-0.087,-0.169,0.006,-0.030
191,-0.093,-0.098,1.000,-0.013,-0.125,-0.097,-0.053,-0.005,0.004,0.011,-0.081,-0.128,-0.036,-0.029
192,-0.084,-0.051,1.000,-0.034,-0.105,-0.073,-0.072,-0.021,-0.005,0.052,-0.092,-0.128,-0.113,-0.033
193,-0.091,-0.041,1.000,-0.026,-0.114,-0.039,-0.032,0.003,-0.050,0.046,-0.078,-0.171,-0.073,-0.043
194,-0.092,-0.062,1.000,-0.065,-0.143,-0.043,-0.030,-0.015,-0.054,0.091,-0.084,-0.186,-0.037,-0.031
195,-0.098,-0.062,1.000,-0.037,-0.153,-0.009,-0.027,-0.024,-0.015,0.074,-0.057,-0.192,-0.058,-0.026
196,-0.101,-0.089,1.000,-0.015,-0.128,-0.031,-0.001,-0.001,0.002,0.091,-0.049,-0.173,-0.059,-0.038
197,-0.114,-0.073,1.000,-0.047,-0.073,-0.021,-0.019,-0.023,0.004,0.021,-0.060,-0.146,-0.089,-0.052
198,-0.109,-0.087,1.000,-0.067,-0.031,-0.059,0.013,-0.016,0.008,0.032,-0.062,-0.138,-0.075,-0.060
199,-0.104,-0.092,1.000,-0.032,-0.053,-0.028,-0.003,-0.025,0.013,0.035,-0.002,-0.070,-0.050,-0.056
200,-0.109,-0.055,1.000,-0.047,-0.033,-0.036,-0.016,-0.004,0.002,0.016,0.004,-0.073,-0.018,-0.032
201,-0.121,-0.136,1.000,-0.075,-0.044,-0.004,0.004,0.036,0.010,0.018,0.006,-0.084,-0.048,-0.057
202,-0.125,-0.077,1.000,-0.066,0.002,-0.012,0.026,0.021,0.010,0.046,0.001,-0.124,-0.030,-0.073
203,-0.129,-0.090,1.000,-0.063,-0.013,0.012,0.075,-0.006,0.008,0.054,-0.015,-0.146,-0.024,-0.054
204,-0.127,-0.127,1.000,-0.059,-0.034,-0.016,0.063,-0.025,0.006,0.050,-0.039,-0.119,-0.021,-0.036
205,-0.136,-0.098,1.000,-0.062,-0.052,-0.065,0.033,-0.027,0.034,0.000,-0.030,-0.091,-0.011,-0.048
206,-0.152,-0.108,1.000,-0.075,-0.055,-0.065,0.022,-0.005,0.003,0.006,-0.051,-0.106,-0.076,-0.071
207,-0.160,-0.106,1.000,-0.095,-0.050,-0.079,0.044,0.030,-0.026,0.021,-0.066,-0.066,-0.068,-0.059
208,-0.168,-0.132,1.000,-0.103,0.002,-0.052,0.082,0.010,-0.057,0.017,-0.050,-0.049,-0.079,-0.092
209,-0.173,-0.119,1.000,-0.114,0.021,-0.018,0.036,-0.006,-0.042,0.073,-0.121,-0.056,-0.028,-0.094
210,-0.180,-0.119,1.000,-0.118,-0.014,-0.040,0.008,-0.011,-0.036,0.061,-0.088,-0.055,-0.020,-0.097
211,-0.181,-0.099,1.000,-0.146,-0.033,-0.053,0.002,0.010,-0.020,0.082,-0.084,-0.063,-0.062,-0.106
212,-0.174,-0.101,1.000,-0.162,-0.054,-0.049,-0.016,0.024,-0.046,0.028,-0.091,-0.136,-0.049,-0.107
213,-0.169,-0.120,1.000,-0.132,-0.061,-0.081,-0.042,0.040,0.015,0.048,-0.073,-0.152,-0.081,-0.117
214,-0.172,-0.152,1.000,-0.119,-0.073,-0.077,-0.069,-0.005,0.022,0.054,-0.052,-0.144,-0.037,-0.104
215,-0.174,-0.110,1.000,-0.073,-0.080,-0.053,-0.051,-0.016,0.023,0.052,-0.085,-0.146,-0.040,-0.120
216,-0.179,-0.128,1.000,-0.077,-0.055,-0.063,0.007,0.030,-0.030,0.060,-0.102,-0.145,-0.043,-0.116
217,-0.174,-0.096,1.000,-0.163,-0.074,-0.070,-0.018,0.042,-0.050,0.046,-0.088,-0.167,-0.011,-0.106
218,-0.167,-0.138,1.000,-0.108,-0.075,-0.084,-0.043,0.027,-0.104,0.061,-0.085,-0.174,-0.001,-0.121
219,-0.161,-0.143,1.000,-0.091,-0.082,-0.080,-0.051,0.048,-0.127,0.037,-0.049,-0.178,-0.017,-0.131
220,-0.155,-0.093,1.000,-0.149,-0.071,-0.024,-0.045,0.044,-0.075,0.051,-0.074,-0.185,-0.053,-0.094
221,-0.141,-0.085,1.000,-0.150,-0.086,-0.044,-0.066,0.040,-0.050,0.043,-0.065,-0.162,-0.056,-0.073
222,-0.134,-0.093,1.000,-0.114,-0.096,-0.080,-0.060,0.014,-0.029,0.030,-0.073,-0.151,-0.062,-0.070
223,-0.117,-0.102,1.000,-0.110,-0.088,-0.024,-0.032,0.000,-0.053,-0.001,-0.051,-0.139,-0.034,-0.075
224,-0.102,-0.088,1.000,-0.090,-0.089,-0.068,-0.029,-0.051,-0.006,-0.004,-0.009,-0.176,-0.034,-0.053
225,-0.082,-0.085,1.000,-0.089,-0.072,-0.086,-0.053,-0.066,-0.017,-0.040,-0.032,-0.184,-0.071,-0.033
226,-0.067,-0.096,1.000,-0.123,-0.087,-0.074,-0.045,-0.090,-0.017,-0.045,-0.057,-0.127,-0.094,-0.006
227,-0.044,-0.076,1.000,-0.043,-0.101,-0.103,-0.043,-0.029,-0.041,-0.068,-0.024,-0.123,-0.128,0.004
228,-0.023,-0.061,1.000,-0.029,-0.086,-0.088,-0.059,-0.024,-0.064,-0.052,-0.025,-0.154,-0.133,0.033
229,-0.008,-0.062,1.000,-0.033,-0.108,-0.084,-0.104,-0.038,-0.065,-0.048,-0.035,-0.152,-0.040,0.018
230,-0.021,-0.069,1.000,-0.053,-0.127,-0.115,-0.042,-0.029,-0.024,-0.028,-0.035,-0.146,-0.025,0.024
231,-0.029,-0.070,1.000,-0.050,-0.054,-0.082,0.003,-0.035,-0.039,-0.025,0.010,-0.174,-0.056,0.016
232,-0.034,-0.057,1.000,0.004,-0.068,-0.083,-0.044,-0.019,-0.080,-0.042,0.054,-0.139,-0.061,-0.005
233,-0.053,-0.101,1.000,-0.050,-0.060,-0.127,-0.071,-0.003,-0.104,-0.046,0.032,-0.145,-0.036,-0.027
234,-0.078,-0.093,1.000,-0.059,-0.062,-0.111,-0.063,-0.047,-0.092,-0.032,0.050,-0.159,-0.061,-0.028
235,-0.097,-0.044,1.000,-0.047,-0.084,-0.110,-0.044,-0.027,-0.070,-0.011,0.049,-0.185,-0.082,-0.052
236,-0.116,-0.102,1.000,-0.061,-0.057,-0.106,-0.046,0.022,-0.024,-0.035,0.001,-0.161,-0.070,-0.032
237,-0.123,-0.080,1.000,-0.056,-0.049,-0.062,-0.026,0.016,-0.008,-0.002,-0.014,-0.142,-0.050,-0.057
238,-0.123,-0.053,1.000,-0.061,-0.028,-0.074,-0.011,0.013,0.003,-0.006,-0.002,-0.142,-0.049,-0.052
239,-0.107,-0.106,1.000,-0.098,-0.049,-0.083,-0.015,0.033,-0.006,-0.006,-0.008,-0.134,-0.041,-0.022
240,-0.099,-0.100,1.000,-0.030,-0.080,-0.054,-0.005,0.038,-0.036,-0.009,-0.037,-0.143,-0.053,0.001
241,-0.102,-0.086,1.000,-0.043,-0.072,-0.069,-0.035,0.055,-0.012,-0.003,-0.037,-0.159,-0.047,-0.017
242,-0.087,-0.091,1.000,-0.055,-0.034,-0.005,-0.080,0.045,-0.015,-0.068,-0.083,-0.183,-0.021,-0.030
243,-0.075,-0.078,1.000,-0.068,-0.036,-0.027,-0.052,0.048,-0.036,-0.064,-0.069,-0.171,-0.025,-0.022
244,-0.065,-0.091,1.000,0.013,-0.040,-0.006,-0.014,0.033,-0.056,-0.039,-0.077,-0.157,-0.004,-0.003
245,-0.050,-0.092,1.000,-0.012,-0.029,-0.024,0.026,-0.002,-0.036,-0.012,-0.045,-0.149,0.027,-0.014
246,-0.046,-0.120,1.000,-0.009,-0.027,-0.066,0.053,0.025,-0.015,0.016,-0.083,-0.143,0.031,-0.004
247,-0.056,-0.119,1.000,0.024,-0.028,-0.032,0.039,0.071,-0.015,0.011,-0.105,-0.151,0.069,-0.052
248,-0.085,-0.083,1.000,-0.002,-0.002,-0.028,0.048,0.100,-0.015,-0.014,-0.112,-0.157,0.066,-0.064
249,-0.106,-0.064,1.000,-0.024,-0.043,-0.025,0.043,0.036,-0.048,-0.036,-0.084,-0.129,0.027,-0.071
250,-0.125,-0.053,1.000,-0.068,-0.021,-0.003,0.004,0.017,-0.064,-0.012,-0.085,-0.131,0.017,-0.068
251,-0.136,-0.103,1.000,-0.028,-0.055,-0.014,-0.014,0.038,-0.040,-0.054,-0.053,-0.159,-0.030,-0.064
252,-0.141,-0.110,1.000,-0.054,-0.093,-0.074,-0.033,0.015,-0.083,-0.078,-0.083,-0.156,-0.001,-0.078
253,-0.126,-0.050,1.000,-0.029,-0.084,-0.041,0.008,0.015,-0.061,-0.008,-0.090,-0.180,-0.010,-0.085
254,-0.104,-0.068,1.000,-0.064,-0.109,-0.003,-0.039,-0.006,-0.020,-0.038,-0.078,-0.181,-0.038,-0.085
255,-0.095,-0.060,1.000,-0.047,-0.102,-0.004,-0.077,0.005,0.009,-0.013,-0.075,-0.145,-0.033,-0.082
256,-0.087,-0.069,1.000,-0.027,-0.113,0.008,-0.064,0.005,-0.016,-0.019,-0.074,-0.133,-0.018,-0.051
257,-0.066,-0.072,1.000,0.024,-0.086,-0.003,-0.071,0.015,-0.058,0.003,-0.104,-0.087,0.028,-0.054
258,-0.055,-0.036,1.000,-0.029,-0.107,-0.002,-0.034,-0.004,-0.062,0.006,-0.108,-0.118,-0.010,-0.031
259,-0.033,-0.014,1.000,-0.014,-0.081,-0.011,-0.055,0.010,-0.056,0.022,-0.110,-0.111,-0.006,-0.031
260,-0.029,-0.034,1.000,0.019,-0.062,0.001,-0.014,0.031,-0.067,0.029,-0.140,-0.141,-0.020,-0.038
261,-0.032,-0.009,1.000,-0.030,-0.059,-0.037,-0.027,0.018,-0.047,-0.001,-0.127,-0.096,0.004,-0.015
262,-0.046,-0.003,1.000,-0.025,-0.077,-0.041,-0.026,0.027,-0.052,0.011,-0.084,-0.129,0.040,-0.010
263,-0.051,0.055,1.000,0.042,-0.084,-0.058,-0.042,0.011,-0.042,-0.034,-0.075,-0.145,0.072,-0.037
264,-0.040,-0.017,1.000,0.006,-0.056,-0.050,-0.023,0.033,-0.059,-0.041,-0.090,-0.179,0.037,-0.054
265,-0.025,-0.004,1.000,-0.002,-0.066,-0.051,-0.020,0.011,-0.072,-0.006,-0.089,-0.142,0.028,-0.029
266,-0.018,0.027,1.000,-0.016,-0.054,-0.033,-0.008,-0.012,-0.081,0.004,-0.100,-0.138,-0.021,-0.053
267,0.002,0.054,1.000,-0.019,-0.059,-0.029,-0.012,-0.000,-0.058,-0.023,-0.116,-0.137,-0.037,-0.045
268,0.013,0.017,1.000,-0.064,-0.052,-0.053,-0.057,-0.002,-0.037,-0.081,-0.075,-0.133,-0.061,-0.032
269,0.014,0.023,1.000,0.021,-0.117,-0.064,-0.061,-0.037,-0.041,-0.069,-0.058,-0.098,-0.062,-0.020
270,0.015,0.037,1.000,-0.028,-0.121,-0.055,-0.056,-0.046,-0.046,-0.050,-0.040,-0.108,-0.059,-0.009
271,0.026,0.019,1.000,0.046,-0.100,-0.046,-0.068,-0.091,-0.036,0.001,-0.037,-0.134,-0.016,0.026
272,0.029,0.044,1.000,0.061,-0.101,-0.067,-0.054,-0.048,-0.018,0.055,-0.012,-0.126,-0.042,0.002
273,0.031,0.067,1.000,0.050,-0.075,-0.079,-0.078,-0.031,-0.029,0.079,0.005,-0.101,-0.058,0.014
274,0.039,0.041,1.000,0.033,-0.092,-0.057,-0.093,-0.011,-0.047,0.085,0.008,-0.137,-0.082,0.007
275,0.045,0.056,1.000,0.061,-0.095,-0.088,-0.075,0.006,-0.012,0.072,-0.004,-0.161,-0.061,0.009
276,0.036,0.057,1.000,0.033,-0.107,-0.075,-0.055,-0.042,-0.011,0.068,0.004,-0.145,-0.079,0.004
277,0.040,0.029,1.000,0.029,-0.100,-0.026,-0.054,-0.072,-0.037,0.061,0.000,-0.073,-0.015,0.001
278,0.048,0.034,1.000,0.036,-0.094,-0.091,-0.064,-0.059,-0.001,0.046,-0.005,-0.076,0.034,0.004
279,0.054,0.036,1.000,0.067,-0.095,-0.052,-0.078,-0.033,0.007,-0.007,0.013,-0.037,0.008,0.020
280,0.071,0.096,1.000,0.046,-0.112,-0.103,-0.052,-0.049,0.041,0.043,0.031,-0.023,0.033,0.042
281,0.077,0.079,1.000,0.065,-0.084,-0.092,-0.010,-0.033,-0.060,0.086,-0.012,-0.019,0.028,0.019
282,0.096,0.017,1.000,0.028,-0.026,-0.069,-0.025,0.028,-0.088,0.093,-0.023,-0.018,0.004,0.053
283,0.097,0.047,1.000,0.061,-0.044,-0.064,-0.041,-0.000,0.009,0.082,-0.016,-0.096,0.020,0.034
284,0.099,0.060,1.000,0.067,-0.071,-0.090,-0.068,-0.022,-0.016,0.042,-0.057,-0.087,-0.009,0.027
285,0.096,0.022,1.000,0.071,-0.071,-0.060,-0.045,-0.083,0.012,0.046,-0.041,-0.110,0.003,0.043
286,0.090,0.034,1.000,0.050,-0.097,-0.071,-0.052,-0.066,-0.041,0.062,-0.047,-0.056,-0.088,0.047
287,0.101,0.030,1.000,0.069,-0.114,-0.033,-0.044,-0.034,-0.031,0.059,-0.077,-0.055,-0.081,0.052
288,0.090,0.075,1.000,0.058,-0.118,-0.035,-0.069,-0.028,0.033,0.034,-0.073,-0.031,-0.000,0.041
289,0.090,0.044,1.000,0.030,-0.107,-0.091,-0.053,-0.038,0.058,0.063,-0.058,-0.023,-0.037,0.053
290,0.098,0.025,1.000,0.045,-0.071,-0.068,-0.055,-0.044,-0.019,0.078,-0.027,-0.020,-0.034,0.045
291,0.097,0.027,1.000,0.069,-0.062,-0.091,-0.069,-0.037,-0.109,0.083,-0.031,-0.004,0.013,0.046
292,0.100,0.011,1.000,0.032,-0.086,-0.031,-0.060,0.012,-0.069,0.040,-0.071,-0.024,-0.002,0.063
293,0.097,0.054,1.000,0.037,-0.088,-0.041,0.002,0.040,-0.044,-0.010,-0.135,-0.058,0.045,0.046
294,0.107,0.089,1.000,-0.002,-0.070,-0.007,-0.027,0.027,-0.042,-0.013,-0.098,-0.098,0.025,0.069
295,0.106,0.047,1.000,0.022,-0.026,0.017,-0.043,0.020,-0.026,0.015,-0.071,-0.101,0.001,0.046
296,0.098,0.020,1.000,-0.006,-0.024,0.038,-0.064,0.019,-0.058,0.011,-0.037,-0.061,-0.033,0.022
297,0.086,-0.004,1.000,0.009,0.009,0.025,-0.068,0.023,-0.043,0.079,-0.025,-0.007,-0.023,0.028
298,0.071,0.067,1.000,-0.006,0.008,0.015,-0.025,0.065,-0.026,0.067,-0.059,-0.017,-0.032,0.043
299,0.073,0.009,1.000,0.053,-0.030,0.012,-0.037,0.026,-0.007,0.098,-0.057,-0.061,-0.023,0.024
300,0.063,-0.026,1.000,0.021,-0.007,0.008,-0.080,-0.012,-0.030,0.100,0.019,-0.057,-0.055,0.001
301,0.056,-0.013,1.000,-0.001,0.019,0.026,-0.100,0.052,-0.011,0.098,0.026,-0.085,-0.097,-0.010
302,0.034,-0.044,1.000,0.009,0.009,0.006,-0.057,0.108,0.003,0.076,0.002,-0.118,-0.048,-0.040
303,0.009,-0.042,1.000,0.046,0.002,-0.010,-0.044,0.068,0.020,0.030,-0.036,-0.100,-0.053,-0.051
304,0.005,-0.041,1.000,0.016,-0.036,-0.023,-0.057,0.076,0.028,0.020,-0.047,-0.074,-0.010,-0.008
305,0.006,-0.027,1.000,-0.004,-0.005,-0.031,-0.048,0.059,-0.020,0.050,-0.039,-0.077,-0.003,0.011
306,-0.003,-0.053,1.000,-0.009,-0.035,-0.050,-0.036,0.096,-0.001,0.080,-0.028,-0.109,0.018,0.019
307,-0.011,-0.043,1.000,0.018,0.011,-0.031,0.018,0.089,-0.026,0.064,-0.016,-0.084,0.023,-0.009
308,-0.028,-0.088,1.000,0.009,-0.018,-0.050,-0.031,0.063,0.026,0.090,-0.022,-0.053,-0.002,-0.015
309,-0.036,-0.029,1.000,-0.068,0.008,-0.066,-0.054,0.041,0.006,0.013,-0.066,-0.032,-0.006,-0.030
310,-0.054,-0.010,1.000,-0.043,0.005,-0.033,-0.076,0.045,0.007,-0.007,-0.093,-0.095,0.015,-0.029
311,-0.073,0.006,1.000,-0.058,-0.024,-0.084,-0.127,0.036,-0.008,0.038,-0.105,-0.072,0.088,-0.030
312,-0.069,-0.024,1.000,-0.040,-0.001,-0.038,-0.063,0.065,-0.055,0.023,-0.122,-0.064,0.072,-0.026
313,-0.056,-0.017,1.000,-0.027,0.013,-0.035,-0.045,0.026,-0.041,-0.026,-0.096,-0.092,0.053,-0.021
314,-0.033,-0.019,1.000,-0.052,-0.015,-0.106,-0.055,-0.026,-0.089,0.031,-0.009,-0.131,-0.021,-0.048
315,-0.019,-0.030,1.000,-0.051,-0.083,-0.070,-0.032,-0.037,-0.110,0.010,-0.019,-0.101,-0.045,-0.036
316,-0.022,-0.065,1.000,-0.003,-0.062,-0.088,-0.028,-0.036,-0.079,0.035,-0.050,-0.048,-0.011,-0.021
317,-0.022,-0.032,1.000,-0.017,-0.069,-0.120,-0.029,0.002,-0.027,0.074,-0.022,-0.035,-0.016,-0.035
318,-0.010,-0.013,1.000,-0.094,-0.061,-0.047,-0.087,0.008,-0.050,0.080,-0.036,-0.049,0.010,-0.000
319,-0.002,0.003,1.000,-0.055,-0.053,-0.070,-0.086,-0.027,-0.062,0.044,-0.024,-0.007,-0.035,0.003
320,0.008,-0.061,1.000,-0.108,-0.074,-0.070,-0.060,0.014,-0.059,0.015,-0.037,-0.001,-0.032,0.030
321,0.005,-0.043,1.000,-0.065,-0.073,-0.041,-0.064,0.006,-0.013,0.015,-0.064,0.021,-0.045,0.017
322,-0.002,-0.058,1.000,-0.060,-0.068,-0.055,-0.054,-0.050,0.021,0.047,-0.065,-0.024,-0.074,0.023
323,-0.005,-0.069,1.000,-0.060,-0.043,-0.039,-0.038,-0.010,-0.022,0.038,-0.105,-0.045,-0.103,0.018
324,-0.009,-0.031,1.000,-0.130,-0.058,-0.049,-0.046,0.058,-0.048,0.039,-0.124,-0.025,-0.105,0.011
325,-0.010,-0.059,1.000,-0.051,-0.072,-0.062,-0.018,0.022,-0.008,0.025,-0.085,0.021,-0.077,0.007
326,-0.005,-0.050,1.000,-0.047,-0.072,-0.114,-0.070,0.018,-0.000,0.003,-0.102,0.013,-0.078,-0.009
327,-0.013,-0.054,1.000,-0.081,-0.111,-0.123,-0.060,0.002,-0.036,-0.021,-0.120,-0.018,-0.066,0.009
328,-0.011,-0.040,1.000,-0.071,-0.136,-0.111,-0.070,0.006,-0.070,-0.093,-0.072,-0.024,-0.026,-0.018
329,-0.012,-0.074,1.000,-0.067,-0.137,-0.066,-0.098,-0.016,-0.067,-0.096,-0.086,-0.030,-0.045,-0.021
330,0.003,-0.073,1.000,-0.073,-0.135,-0.054,-0.020,-0.004,-0.029,-0.093,-0.089,-0.030,-0.016,0.004
331,0.005,-0.099,1.000,-0.022,-0.091,0.023,0.001,-0.044,0.043,-0.093,-0.050,-0.003,-0.059,0.035
332,0.003,-0.051,1.000,-0.068,-0.061,-0.034,-0.056,0.017,0.040,-0.082,-0.054,-0.021,-0.029,0.024
333,0.010,-0.074,1.000,-0.120,-0.071,-0.064,-0.087,0.017,-0.042,-0.055,-0.009,-0.044,-0.028,0.095
334,0.010,-0.053,1.000,-0.043,-0.083,-0.044,-0.068,-0.009,-0.072,-0.053,-0.010,-0.030,-0.049,0.039
335,0.030,-0.048,1.000,-0.029,-0.048,-0.013,-0.019,-0.026,-0.014,0.000,-0.012,-0.038,-0.064,0.038
336,0.032,-0.085,1.000,-0.030,-0.017,-0.014,-0.064,0.006,0.039,0.009,0.042,-0.048,-0.122,0.008
337,0.032,-0.113,1.000,-0.082,0.013,0.014,-0.075,0.018,-0.019,-0.049,-0.020,-0.012,-0.069,0.027
338,0.028,-0.085,1.000,-0.054,0.008,0.035,-0.055,-0.009,-0.015,-0.087,-0.020,0.043,-0.049,0.034
339,0.015,-0.048,1.000,-0.054,-0.008,-0.011,-0.027,0.010,-0.074,-0.123,-0.028,0.037,-0.024,0.030
340,0.003,-0.096,1.000,-0.006,0.026,0.037,-0.010,0.019,-0.008,-0.079,-0.030,0.029,-0.027,0.035
341,-0.007,-0.105,1.000,-0.052,0.029,0.053,0.044,0.029,0.040,-0.068,-0.026,0.048,-0.008,-0.002
342,-0.003,-0.025,1.000,-0.065,0.033,0.101,-0.009,0.001,-0.018,-0.063,-0.084,0.088,0.003,0.008
343,-0.020,-0.066,1.000,-0.101,-0.035,0.114,-0.050,-0.001,-0.062,-0.090,-0.053,0.081,-0.026,-0.009
344,-0.035,-0.105,1.000,-0.024,-0.011,0.097,-0.058,-0.017,0.012,-0.078,-0.096,0.029,0.021,0.002
345,-0.062,-0.087,1.000,-0.067,-0.037,0.072,-0.047,-0.052,0.035,-0.123,-0.047,0.023,0.027,-0.019
346,-0.082,-0.085,1.000,-0.069,0.007,0.064,-0.072,-0.021,0.053,-0.095,-0.046,0.052,0.017,-0.036
347,-0.085,-0.094,1.000,-0.071,0.030,0.057,-0.060,-0.024,0.062,-0.050,-0.057,0.054,0.031,-0.051
348,-0.089,-0.068,1.000,-0.069,0.068,0.077,0.001,-0.060,0.063,-0.036,-0.041,0.086,-0.005,-0.070
349,-0.075,-0.064,1.000,-0.067,0.047,0.075,-0.032,-0.056,0.037,-0.057,-0.005,0.032,-0.016,-0.023
350,-0.078,-0.099,1.000,-0.037,0.005,0.067,-0.062,-0.030,0.046,-0.043,0.037,0.070,-0.072,0.005
351,-0.078,-0.053,1.000,-0.048,0.017,0.070,-0.016,0.012,0.009,-0.037,0.011,0.054,-0.044,-0.007
352,-0.070,-0.061,1.000,-0.046,-0.009,0.101,-0.034,0.012,-0.030,-0.031,-0.007,0.037,-0.021,-0.020
353,-0.069,-0.085,1.000,-0.053,0.032,0.074,0.011,-0.021,0.025,-0.010,-0.037,0.033,-0.036,-0.013
354,-0.052,-0.099,1.000,-0.058,0.027,0.055,0.047,-0.011,0.034,-0.047,-0.046,0.043,-0.031,-0.020
355,-0.036,-0.048,1.000,-0.077,0.038,0.033,0.054,0.006,-0.008,-0.096,-0.053,0.013,0.005,-0.002
356,-0.028,-0.035,1.000,-0.061,0.016,-0.043,0.073,0.021,-0.042,-0.077,-0.059,0.021,0.059,0.039
357,-0.036,-0.028,1.000,-0.086,0.009,0.029,0.044,0.014,-0.056,-0.111,-0.063,-0.004,0.019,0.017
358,-0.054,-0.101,1.000,-0.039,-0.014,-0.011,0.021,-0.027,-0.076,-0.134,-0.060,0.012,0.084,-0.013
359,-0.065,-0.021,1.000,-0.043,-0.055,-0.001,0.017,-0.028,-0.037,-0.108,-0.067,0.048,0.065,-0.009
360,-0.078,-0.018,1.000,-0.029,-0.020,-0.013,0.027,-0.086,-0.059,-0.061,-0.043,0.043,0.032,-0.037
361,-0.077,-0.072,1.000,-0.045,-0.005,0.008,0.025,-0.064,-0.046,-0.016,-0.074,-0.028,0.021,-0.047
362,-0.071,-0.049,1.000,-0.030,-0.010,-0.031,0.006,-0.052,-0.049,-0.019,-0.036,-0.054,-0.030,-0.032
363,-0.080,0.001,1.000,-0.025,-0.097,-0.033,-0.061,-0.064,-0.051,-0.044,-0.025,-0.048,-0.039,-0.057
364,-0.080,-0.024,1.000,0.014,-0.058,-0.031,-0.099,-0.100,-0.024,-0.076,0.008,-0.020,-0.086,-0.057
365,-0.079,-0.018,1.000,-0.055,-0.106,-0.033,-0.098,-0.074,-0.015,-0.081,0.013,-0.003,-0.081,-0.076
366,-0.077,-0.001,1.000,-0.043,-0.123,-0.024,-0.034,-0.058,-0.016,-0.026,0.011,-0.029,-0.074,-0.053
367,-0.067,-0.004,1.000,-0.023,-0.081,-0.079,-0.029,-0.045,-0.042,-0.017,0.046,0.002,-0.015,-0.040
368,-0.057,-0.002,1.000,0.043,-0.086,-0.074,-0.092,-0.011,-0.051,0.037,0.064,-0.015,-0.033,-0.039
369,-0.043,0.007,1.000,0.042,-0.064,-0.078,-0.055,0.047,-0.010,-0.018,0.045,0.006,-0.015,-0.055
370,-0.026,0.076,1.000,0.027,-0.033,-0.032,-0.090,0.066,-0.002,-0.044,0.040,-0.021,0.006,-0.049
371,-0.007,0.017,1.000,-0.033,0.037,-0.065,-0.042,0.057,-0.002,0.003,0.035,-0.000,-0.040,-0.022
372,0.005,0.047,1.000,0.083,0.044,-0.051,0.026,0.051,-0.003,0.026,0.092,-0.006,0.017,-0.025
373,0.026,0.098,1.000,0.046,0.027,-0.100,0.036,0.040,0.012,0.040,0.115,0.018,0.049,0.012
374,0.039,0.106,1.000,0.021,0.027,-0.062,0.071,-0.011,0.042,-0.066,0.126,0.045,0.081,0.020
375,0.035,0.055,1.000,0.048,0.048,-0.064,0.083,0.059,0.019,-0.025,0.105,0.091,0.070,0.033
376,0.046,0.066,1.000,0.096,0.102,-0.047,0.038,0.045,-0.016,0.093,0.151,0.090,0.083,0.004
377,0.046,0.089,1.000,0.068,0.126,-0.048,0.065,0.079,0.015,0.049,0.156,0.123,0.039,0.006
378,0.053,0.069,1.000,0.053,0.134,-0.046,0.026,0.037,0.051,0.017,0.127,0.100,0.024,0.003
379,0.061,0.050,1.000,0.054,0.078,-0.031,0.050,0.057,0.039,0.047,0.109,0.112,0.045,0.028
380,0.054,0.135,1.000,0.030,0.101,-0.055,0.128,0.020,0.033,0.036,0.083,0.101,0.039,0.006
381,0.068,0.062,1.000,0.041,0.108,0.018,0.081,0.057,0.058,-0.001,0.079,0.123,0.071,0.010
382,0.085,0.038,1.000,0.032,0.125,0.049,0.113,0.076,0.025,-0.047,0.048,0.088,0.026,0.010
383,0.113,0.091,1.000,0.082,0.097,0.074,0.104,0.064,-0.002,-0.044,0.043,0.080,0.060,-0.006
384,0.133,0.082,1.000,0.106,0.100,0.070,0.042,0.028,-0.067,-0.072,0.071,0.065,0.090,0.024
385,0.145,0.075,1.000,0.072,0.088,0.108,0.067,0.016,-0.057,-0.026,0.063,0.065,0.048,0.051
386,0.165,0.100,1.000,0.100,0.114,0.122,0.096,0.025,-0.043,0.076,0.039,0.108,0.026,0.083
387,0.187,0.098,1.000,0.094,0.115,0.149,0.058,0.014,-0.044,0.080,0.070,0.149,-0.013,0.103
388,0.227,0.087,1.000,0.161,0.083,0.183,0.108,-0.037,-0.036,0.042,0.077,0.153,0.011,0.119
389,0.284,0.077,1.000,0.101,0.083,0.172,0.082,-0.053,-0.087,0.063,0.112,0.164,0.091,0.145
390,0.323,0.124,1.000,0.191,0.112,0.149,0.014,-0.065,-0.046,0.079,0.095,0.143,0.120,0.164
391,0.352,0.167,1.000,0.233,0.052,0.171,-0.007,-0.023,-0.031,-0.017,0.062,0.111,0.091,0.185
392,0.358,0.176,1.000,0.242,0.066,0.145,0.030,-0.019,-0.039,-0.008,0.079,0.094,0.029,0.190
393,0.334,0.189,1.000,0.160,0.044,0.101,0.035,-0.010,0.010,-0.000,0.004,0.095,0.023,0.212
394,0.316,0.160,1.000,0.170,0.080,0.139,0.029,-0.041,0.086,-0.025,0.021,0.072,-0.007,0.159
395,0.293,0.144,1.000,0.098,0.084,0.106,0.024,-0.024,0.046,0.000,0.080,0.103,-0.077,0.172
396,0.265,0.163,1.000,0.147,0.065,0.069,-0.008,-0.023,-0.047,0.007,0.094,0.139,-0.055,0.097
397,0.259,0.183,1.000,0.149,0.105,0.062,-0.043,-0.025,-0.084,-0.008,0.070,0.150,-0.043,0.109
398,0.211,0.157,1.000,0.149,0.053,0.052,-0.020,-0.058,-0.093,-0.042,0.085,0.181,0.018,0.068
399,0.196,0.125,1.000,0.107,0.081,0.068,-0.029,-0.082,-0.043,-0.106,0.088,0.123,0.000,0.081
400,0.175,0.130,1.000,0.127,0.078,0.127,0.001,-0.033,-0.019,-0.032,0.042,0.122,-0.000,0.077
401,0.193,0.175,1.000,0.179,0.089,0.095,0.105,-0.023,-0.040,-0.022,0.038,0.117,0.033,0.097
402,0.217,0.172,1.000,0.122,0.043,0.135,0.078,-0.054,-0.016,-0.005,0.050,0.147,0.005,0.139
403,0.227,0.118,1.000,0.099,0.058,0.130,0.019,-0.037,0.019,0.017,0.077,0.128,0.053,0.131
404,0.239,0.102,1.000,0.121,0.041,0.119,-0.005,-0.000,0.028,0.020,0.031,0.143,0.114,0.151
405,0.220,0.148,1.000,0.135,0.108,0.129,-0.024,-0.026,0.037,0.030,0.046,0.113,0.095,0.142
406,0.212,0.155,1.000,0.165,0.123,0.130,0.026,-0.078,0.029,0.024,0.079,0.178,0.061,0.136
407,0.194,0.164,1.000,0.123,0.133,0.116,0.041,-0.099,0.028,0.044,0.029,0.245,0.065,0.130
408,0.169,0.121,1.000,0.161,0.125,0.132,0.071,-0.067,0.009,-0.012,0.018,0.249,0.076,0.101
409,0.154,0.134,1.000,0.114,0.126,0.115,0.088,-0.017,0.021,-0.035,0.084,0.246,-0.031,0.064
410,0.125,0.131,1.000,0.176,0.129,0.140,0.031,-0.028,0.057,-0.008,0.045,0.262,-0.020,0.107
411,0.110,0.196,1.000,0.117,0.125,0.180,0.008,-0.010,0.105,0.055,0.008,0.209,-0.002,0.114
412,0.081,0.115,1.000,0.101,0.171,0.175,0.016,0.034,0.100,0.095,0.067,0.165,0.021,0.103
413,0.058,0.070,1.000,0.063,0.120,0.177,0.019,0.060,0.033,0.053,0.094,0.154,0.008,0.064
414,0.032,0.062,1.000,0.068,0.150,0.111,0.040,0.066,0.005,0.149,0.052,0.174,0.099,0.023
415,0.029,0.081,1.000,0.056,0.147,0.145,0.081,0.076,0.055,0.107,0.052,0.198,0.134,0.051
416,0.052,0.063,1.000,0.046,0.116,0.139,0.055,0.051,0.097,0.147,0.033,0.222,0.111,0.100
417,0.047,0.067,1.000,0.036,0.129,0.074,0.058,-0.010,0.081,0.044,0.016,0.215,0.058,0.084
418,0.052,0.034,1.000,0.056,0.083,0.071,0.032,-0.028,0.075,0.017,0.020,0.246,0.002,0.037
419,0.061,0.032,1.000,0.110,0.101,0.032,-0.049,-0.050,0.096,-0.021,0.018,0.204,0.068,0.022
420,0.048,0.092,1.000,0.112,0.049,0.022,0.024,-0.044,0.099,-0.017,-0.028,0.224,0.105,0.031
421,0.047,0.022,1.000,0.067,0.069,0.040,0.003,-0.059,0.079,0.006,-0.079,0.204,0.049,0.056
422,0.038,0.075,1.000,0.076,0.012,0.024,0.040,-0.024,0.065,0.021,-0.073,0.180,0.033,0.047
423,0.012,0.018,1.000,0.043,0.057,0.007,0.092,0.008,0.060,-0.057,-0.005,0.176,-0.030,0.014
424,0.006,0.052,1.000,0.049,0.107,0.054,0.086,-0.064,0.072,-0.048,0.008,0.189,-0.047,0.026
425,-0.008,0.072,1.000,0.034,0.083,0.064,0.051,-0.060,0.047,-0.021,-0.006,0.199,-0.014,0.022
426,-0.026,0.028,1.000,0.041,0.091,0.060,-0.025,-0.011,0.004,-0.023,0.038,0.199,-0.005,0.001
427,-0.013,0.051,1.000,0.064,0.067,0.042,-0.015,-0.014,0.016,-0.010,0.111,0.147,0.006,0.008
428,-0.003,0.061,1.000,0.086,0.043,0.031,0.041,0.021,0.027,0.022,-0.000,0.168,0.086,0.030
429,0.007,0.050,1.000,0.068,0.003,0.051,0.042,0.005,0.016,0.027,0.062,0.178,0.122,-0.015
430,0.022,0.056,1.000,0.010,0.050,0.001,0.092,0.059,-0.020,-0.027,0.069,0.198,0.105,-0.001
431,0.043,0.060,1.000,0.047,0.072,0.033,0.096,0.100,-0.017,0.041,0.101,0.197,0.094,0.017
432,0.030,0.031,1.000,0.031,0.084,0.061,0.046,0.097,-0.031,0.059,0.161,0.182,0.096,0.027
433,0.017,0.011,1.000,-0.012,0.111,0.034,0.068,0.025,-0.036,0.050,0.182,0.182,0.108,0.025
434,0.007,0.033,1.000,0.030,0.162,0.048,0.100,0.008,-0.033,-0.001,0.170,0.141,0.002,0.019
435,-0.000,0.070,1.000,0.036,0.166,0.104,0.044,0.056,0.041,-0.008,0.126,0.159,-0.024,0.009
436,0.005,0.011,1.000,-0.002,0.123,0.079,0.012,0.023,0.067,-0.014,0.093,0.194,0.054,-0.010
437,-0.004,0.049,1.000,-0.013,0.096,0.085,-0.062,0.016,0.057,-0.066,0.087,0.230,0.039,-0.017
438,-0.016,-0.035,1.000,-0.014,0.007,0.049,-0.017,-0.023,0.014,-0.037,0.080,0.198,0.036,-0.024
439,-0.023,0.001,1.000,-0.007,0.023,0.040,0.012,-0.028,0.042,-0.049,0.018,0.131,0.023,0.015
440,-0.046,-0.057,1.000,0.031,0.074,0.061,-0.004,0.022,0.092,-0.038,0.039,0.154,-0.063,-0.002
441,-0.045,-0.007,1.000,-0.013,0.032,0.040,0.057,0.034,0.128,-0.056,0.006,0.151,-0.058,0.008
442,-0.052,-0.041,1.000,-0.062,0.020,0.036,0.036,0.007,0.078,-0.036,-0.025,0.151,-0.034,-0.021
443,-0.051,-0.024,1.000,-0.032,0.005,0.076,0.009,-0.052,0.058,-0.080,0.037,0.124,-0.040,-0.010
444,-0.051,-0.086,1.000,0.001,-0.011,0.094,0.053,-0.054,0.079,-0.085,-0.014,0.078,-0.100,-0.026
445,-0.049,-0.003,1.000,-0.061,-0.016,0.058,0.001,-0.105,0.031,-0.078,0.016,0.093,-0.065,-0.016
446,-0.045,-0.039,1.000,-0.027,0.048,0.086,0.035,-0.099,0.037,-0.107,0.095,0.100,0.005,-0.012
447,-0.042,-0.093,1.000,-0.044,0.069,0.031,0.059,-0.072,0.003,-0.034,0.060,0.084,0.004,-0.042
448,-0.042,-0.076,1.000,-0.021,0.071,0.050,0.124,-0.088,0.026,-0.037,0.087,0.142,0.002,-0.040
449,-0.021,-0.054,1.000,-0.081,0.121,0.013,0.139,-0.067,0.056,-0.019,0.123,0.102,0.013,-0.055
450,0.004,-0.065,1.000,-0.029,0.136,-0.017,0.065,-0.041,0.049,-0.002,0.156,0.116,0.056,0.008
451,0.007,-0.066,1.000,-0.028,0.155,0.004,0.077,-0.064,0.047,-0.035,0.198,0.081,0.004,0.041
452,0.005,-0.023,1.000,-0.024,0.135,0.041,0.073,-0.109,0.046,0.017,0.123,0.079,0.027,-0.011
453,-0.013,-0.003,1.000,-0.075,0.094,0.005,0.037,-0.092,0.064,0.012,0.129,0.090,0.023,0.032
454,-0.030,-0.027,1.000,-0.141,0.111,-0.038,0.058,-0.043,0.047,-0.012,0.077,0.091,0.008,-0.017
455,-0.031,0.036,1.000,-0.123,0.105,-0.036,0.097,-0.067,0.024,0.006,0.057,0.036,0.028,0.036
456,-0.036,0.007,1.000,-0.072,0.085,-0.022,0.085,-0.099,0.007,0.017,0.008,0.057,0.024,0.084
457,-0.056,0.007,1.000,-0.088,0.075,-0.002,0.101,-0.071,0.031,0.115,0.008,0.130,-0.003,0.067
458,-0.064,-0.000,1.000,-0.130,0.085,0.008,0.035,-0.026,0.054,-0.018,0.004,0.152,-0.069,-0.000
459,-0.073,0.026,1.000,-0.085,0.077,0.021,-0.007,0.032,0.050,-0.051,0.017,0.144,-0.011,-0.026
460,-0.097,0.029,1.000,-0.095,0.041,-0.043,0.029,0.023,0.032,-0.087,-0.009,0.114,-0.010,-0.067
461,-0.108,-0.045,1.000,-0.078,0.034,-0.040,0.026,-0.035,0.037,-0.065,0.009,0.073,0.006,-0.029
462,-0.124,-0.009,1.000,-0.058,0.048,-0.058,0.056,-0.034,0.031,-0.051,0.009,0.118,0.075,-0.071
463,-0.137,-0.029,1.000,-0.093,0.051,-0.019,0.044,-0.016,0.059,-0.047,0.034,0.074,0.057,-0.058
464,-0.128,-0.049,1.000,-0.098,0.064,-0.043,0.054,-0.002,0.075,-0.056,0.075,0.076,0.068,-0.062
465,-0.137,-0.019,1.000,-0.095,0.073,-0.087,0.061,-0.040,0.064,-0.051,0.063,0.061,-0.010,-0.088
466,-0.131,-0.025,1.000,-0.064,0.033,-0.071,0.003,-0.083,0.045,-0.017,0.044,0.046,0.024,-0.058
467,-0.142,0.002,1.000,-0.089,0.031,-0.098,-0.039,-0.070,0.028,-0.043,0.041,0.040,0.080,-0.086
468,-0.138,-0.001,1.000,-0.098,0.040,-0.046,-0.034,-0.043,0.068,0.014,0.054,0.027,0.077,-0.048
469,-0.142,-0.020,1.000,-0.084,0.061,-0.066,0.008,-0.040,0.087,0.011,0.047,0.064,-0.001,-0.071
470,-0.153,0.005,1.000,-0.115,0.087,-0.036,0.024,-0.031,0.092,-0.008,0.045,0.076,0.050,-0.064
471,-0.140,-0.042,1.000,-0.096,0.082,-0.030,-0.003,-0.018,0.068,0.009,0.069,0.077,0.073,-0.089
472,-0.135,0.020,1.000,-0.083,0.059,-0.066,-0.025,0.032,0.069,-0.003,0.058,0.067,0.033,-0.086
473,-0.140,-0.093,1.000,-0.063,0.071,-0.045,0.019,0.095,0.066,-0.018,0.049,0.051,-0.004,-0.110
474,-0.130,-0.066,1.000,-0.032,0.150,-0.082,0.030,0.072,0.066,0.094,0.074,0.065,-0.017,-0.092
475,-0.119,-0.019,1.000,-0.064,0.158,-0.089,0.020,0.123,0.096,0.078,0.032,0.044,-0.009,-0.112
476,-0.090,-0.030,1.000,-0.029,0.161,-0.063,0.046,0.157,0.140,0.059,0.058,0.050,0.016,-0.099
477,-0.078,-0.103,1.000,-0.074,0.122,-0.066,0.056,0.102,0.138,0.013,0.026,0.064,0.085,-0.108
478,-0.084,-0.038,1.000,-0.019,0.153,-0.012,0.042,0.070,0.119,-0.004,0.076,0.063,0.078,-0.118
479,-0.069,-0.033,1.000,-0.019,0.150,0.019,0.035,0.047,0.080,-0.036,0.036,0.071,0.080,-0.079
480,-0.064,0.007,1.000,-0.062,0.102,0.068,0.051,0.043,0.062,-0.009,0.024,0.066,0.103,-0.084
481,-0.054,-0.043,1.000,-0.030,0.131,0.022,0.052,0.055,0.065,0.091,0.068,0.080,0.142,-0.093
482,-0.051,-0.045,1.000,-0.050,0.125,0.013,0.050,0.016,0.036,0.062,0.060,0.030,0.126,-0.072
483,-0.026,-0.004,1.000,-0.077,0.143,-0.021,0.078,-0.014,0.019,0.075,0.056,0.029,0.083,-0.051
484,-0.019,-0.001,1.000,-0.056,0.132,-0.027,0.063,0.019,0.002,-0.008,0.046,0.047,0.110,-0.047
485,0.007,0.014,1.000,0.033,0.126,0.005,-0.003,0.012,0.048,0.012,0.063,0.060,0.050,-0.008
486,0.035,0.049,1.000,-0.046,0.110,0.024,-0.038,0.034,0.049,-0.018,0.059,0.086,-0.006,0.022
487,0.047,0.050,1.000,-0.033,0.118,0.020,-0.036,0.021,-0.008,0.011,0.022,0.095,-0.058,0.032
488,0.062,0.081,1.000,0.036,0.136,-0.003,0.032,0.046,-0.065,0.008,0.054,0.119,-0.062,0.005
489,0.079,0.065,1.000,0.027,0.111,0.004,0.034,0.071,0.003,-0.003,0.013,0.124,-0.032,0.005
490,0.082,0.092,1.000,0.043,0.101,-0.041,0.028,-0.009,0.066,0.001,-0.021,0.038,-0.074,-0.019
491,0.080,0.066,1.000,0.029,0.093,0.009,0.040,-0.036,0.110,0.040,-0.022,0.055,-0.039,-0.029
492,0.066,0.024,1.000,0.023,0.063,0.017,0.045,-0.051,0.091,0.036,-0.076,0.100,0.032,-0.031
493,0.077,0.111,1.000,0.040,0.081,0.021,0.048,-0.020,0.100,0.076,-0.037,0.090,0.105,-0.036
494,0.077,0.050,1.000,0.032,0.045,-0.020,0.062,-0.017,0.100,0.046,-0.030,-0.005,0.126,-0.019
495,0.085,0.081,1.000,0.101,0.061,-0.031,0.085,0.039,0.039,0.078,-0.008,0.040,0.108,-0.032
496,0.085,0.072,1.000,0.020,0.028,-0.029,0.058,-0.066,0.074,0.062,0.018,0.071,-0.000,-0.036
497,0.075,0.097,1.000,0.058,0.013,0.039,0.088,-0.114,0.058,0.045,0.033,0.064,-0.013,-0.050
498,0.077,0.101,1.000,-0.001,0.031,0.004,-0.018,-0.081,0.097,0.036,-0.014,0.007,0.013,-0.036
499,0.094,0.073,1.000,0.047,0.060,0.004,0.013,0.020,0.142,0.060,0.006,0.047,-0.043,0.019
500,0.091,0.080,1.000,0.087,0.049,0.090,0.003,0.051,0.152,0.106,0.044,0.062,0.001,0.010
501,0.073,0.076,1.000,0.043,0.015,-0.023,0.017,-0.028,0.039,0.063,0.066,0.101,0.050,0.059
502,0.060,0.090,1.000,0.091,0.022,0.042,0.013,-0.000,0.028,-0.001,0.089,0.083,0.105,0.036
503,0.069,0.069,1.000,0.111,0.010,0.029,-0.011,0.007,-0.002,-0.038,0.058,0.063,0.085,0.014
504,0.090,0.150,1.000,0.137,-0.007,-0.017,-0.027,-0.048,0.033,-0.038,0.047,0.112,0.025,-0.006
505,0.088,0.084,1.000,0.064,0.047,0.084,-0.018,-0.010,0.033,-0.035,0.105,0.058,-0.028,0.002
506,0.078,0.068,1.000,0.062,0.075,0.003,0.008,-0.002,-0.024,-0.023,0.104,0.045,-0.005,-0.034
507,0.074,0.037,1.000,0.136,0.032,-0.012,0.018,0.004,-0.070,-0.011,0.104,0.099,-0.010,-0.018
508,0.089,0.057,1.000,0.071,0.038,0.004,-0.008,-0.032,-0.059,-0.108,0.091,0.130,-0.064,-0.000
509,0.097,0.076,1.000,0.081,0.065,-0.002,-0.061,0.012,0.027,-0.061,0.163,0.131,0.026,0.033
510,0.105,0.064,1.000,0.085,0.079,-0.012,-0.007,0.042,0.059,-0.021,0.125,0.079,0.000,0.065
511,0.122,0.080,1.000,0.080,0.061,0.008,-0.003,0.082,0.021,-0.019,0.050,0.090,-0.001,0.067
512,0.138,0.133,1.000,0.100,0.042,0.017,-0.023,0.025,0.007,0.028,0.027,0.101,0.033,0.055
513,0.157,0.084,1.000,0.118,0.026,-0.010,0.016,0.023,0.017,0.047,0.033,0.131,-0.052,0.082
514,0.182,0.119,1.000,0.093,0.059,0.073,0.015,0.021,0.023,0.061,0.088,0.095,-0.003,0.109
515,0.176,0.100,1.000,0.065,0.064,0.034,0.034,0.070,-0.059,0.058,-0.004,0.116,0.038,0.118
516,0.183,0.132,1.000,0.098,0.019,0.054,0.015,0.033,-0.001,0.016,0.030,0.162,0.037,0.112
517,0.179,0.090,1.000,0.075,0.010,0.020,-0.034,0.015,0.049,0.037,-0.013,0.161,0.004,0.092
518,0.178,0.141,1.000,0.086,-0.011,-0.017,-0.015,-0.009,0.053,0.014,-0.013,0.219,0.023,0.114
519,0.173,0.095,1.000,0.110,-0.009,0.032,-0.093,-0.009,0.072,-0.031,-0.008,0.210,-0.001,0.135
520,0.162,0.105,1.000,0.028,0.001,0.021,-0.020,0.039,0.034,-0.012,0.006,0.226,-0.062,0.105
521,0.153,0.078,1.000,0.108,-0.006,0.077,0.018,0.050,0.020,0.012,0.022,0.138,-0.083,0.105
522,0.162,0.099,1.000,0.063,-0.015,0.046,0.016,0.056,-0.022,-0.014,0.027,0.121,-0.042,0.108
523,0.176,0.099,1.000,0.084,0.014,0.049,0.025,0.045,-0.053,-0.072,-0.014,0.125,0.010,0.116
524,0.179,0.123,1.000,0.022,-0.006,0.125,-0.010,0.026,-0.109,-0.080,0.066,0.137,0.053,0.075
525,0.181,0.135,1.000,0.096,0.044,0.070,0.023,0.074,-0.086,-0.038,0.077,0.099,-0.009,0.116
526,0.192,0.142,1.000,0.068,-0.014,0.122,-0.033,0.035,0.027,-0.063,0.047,0.075,0.022,0.072
527,0.204,0.166,1.000,0.050,0.016,0.093,-0.048,-0.070,0.054,0.046,0.037,0.086,0.058,0.112
528,0.204,0.167,1.000,0.040,0.067,0.079,0.011,-0.146,0.017,0.026,0.049,0.120,0.156,0.162
529,0.201,0.124,1.000,0.085,0.068,0.045,0.024,-0.119,-0.024,0.032,0.090,0.104,0.113,0.126
530,0.199,0.125,1.000,0.097,0.021,-0.001,0.017,-0.173,-0.017,-0.009,0.022,0.089,0.109,0.139
531,0.171,0.071,1.000,0.115,-0.010,0.046,0.048,-0.151,0.022,0.027,0.003,0.086,0.067,0.050
532,0.161,0.110,1.000,0.107,0.004,0.078,0.009,-0.173,0.005,-0.042,-0.002,0.037,0.079,0.072
533,0.157,0.092,1.000,0.145,0.006,0.088,0.052,-0.079,-0.017,-0.020,0.058,-0.011,0.069,0.065
534,0.139,0.083,1.000,0.077,-0.021,0.053,0.009,-0.006,-0.010,-0.029,0.060,-0.005,0.036,0.081
535,0.112,0.019,1.000,0.152,-0.067,0.075,-0.082,-0.012,-0.011,-0.006,0.043,0.023,0.021,0.053
536,0.100,0.036,1.000,0.086,-0.066,0.096,-0.097,-0.041,-0.031,-0.017,-0.039,0.023,-0.033,0.052
537,0.089,0.064,1.000,0.124,-0.098,0.083,-0.023,-0.010,-0.026,-0.091,-0.079,-0.007,-0.065,0.026
538,0.091,0.115,1.000,0.098,-0.082,0.072,0.011,-0.044,-0.072,0.030,-0.080,0.010,-0.109,0.078
539,0.101,0.111,1.000,0.155,-0.102,0.106,-0.034,-0.064,-0.077,-0.025,-0.024,0.023,-0.126,0.071
540,0.098,0.063,1.000,0.098,-0.109,0.061,-0.071,-0.083,-0.062,0.022,-0.007,0.044,0.007,0.087
541,0.099,0.106,1.000,0.083,-0.089,0.128,-0.063,-0.107,-0.045,-0.034,0.036,0.029,0.048,0.077
542,0.104,0.116,1.000,0.088,-0.087,0.143,-0.034,-0.072,-0.016,-0.008,0.046,0.017,0.111,0.062
543,0.101,0.140,1.000,0.067,-0.034,0.105,0.006,-0.016,-0.053,0.026,0.040,0.022,0.040,0.066
544,0.093,0.150,1.000,0.167,0.012,0.155,0.017,0.067,-0.004,-0.026,0.045,-0.025,-0.002,0.092
545,0.076,0.128,1.000,0.071,0.002,0.132,-0.048,0.073,0.007,-0.026,0.039,0.001,-0.021,0.093
546,0.061,0.085,1.000,0.018,0.023,0.142,-0.060,0.055,0.115,0.007,0.102,0.047,-0.024,0.065
547,0.048,0.153,1.000,0.049,0.109,0.101,0.023,0.121,0.143,0.038,0.147,0.081,-0.020,0.040
548,0.044,0.098,1.000,0.032,0.084,0.076,-0.002,0.124,0.138,0.047,0.137,0.077,-0.021,0.024
549,0.035,0.061,1.000,0.044,0.055,0.080,-0.027,0.087,0.145,-0.011,0.101,0.087,0.001,0.049
550,0.022,0.049,1.000,0.011,0.064,0.107,0.026,-0.010,0.147,-0.030,0.136,0.098,0.033,0.020
551,0.029,0.036,1.000,0.037,0.058,0.130,0.034,-0.045,0.142,-0.058,0.155,0.041,0.038,-0.012
552,0.026,0.066,1.000,-0.013,0.064,0.128,0.020,-0.024,0.031,-0.097,0.061,0.061,0.054,-0.021
553,0.028,0.030,1.000,0.047,0.036,0.074,0.051,0.013,-0.046,-0.069,0.034,-0.026,0.076,0.023
554,0.011,0.120,1.000,0.002,0.023,0.096,-0.023,0.023,-0.042,-0.097,-0.018,0.009,0.118,0.024
555,-0.027,0.093,1.000,0.030,0.008,0.043,-0.002,0.009,0.019,-0.033,-0.063,0.014,0.121,0.032
556,-0.053,0.065,1.000,-0.029,0.021,0.008,-0.012,-0.023,0.038,-0.008,-0.089,0.055,0.090,0.029
557,-0.069,0.017,1.000,-0.027,0.027,0.017,-0.002,-0.033,-0.009,-0.071,-0.097,0.078,0.059,0.021
558,-0.084,0.018,1.000,-0.003,0.060,-0.014,-0.032,0.015,-0.056,-0.074,-0.080,0.074,0.067,-0.018
559,-0.081,0.068,1.000,0.055,0.037,-0.068,-0.084,0.004,-0.087,-0.017,-0.035,0.040,0.030,0.001
560,-0.068,0.005,1.000,-0.030,0.031,-0.025,-0.124,0.020,-0.084,-0.046,0.035,0.008,0.018,0.044
561,-0.072,0.009,1.000,0.016,0.028,0.035,-0.054,0.124,-0.041,-0.042,-0.024,-0.007,0.057,0.018
562,-0.084,0.005,1.000,-0.007,0.025,0.071,-0.004,0.158,-0.031,-0.003,-0.051,-0.027,0.072,0.051
563,-0.093,-0.007,1.000,0.038,0.008,0.037,0.059,0.113,-0.023,0.030,0.032,-0.043,0.086,0.090
564,-0.097,-0.023,1.000,0.024,0.020,0.034,0.008,0.103,-0.053,0.065,0.056,-0.046,0.069,0.040
565,-0.102,-0.030,1.000,-0.018,0.009,0.017,-0.014,0.080,-0.101,0.023,0.009,-0.053,0.083,0.009
566,-0.114,-0.032,1.000,-0.017,0.002,-0.026,-0.031,0.096,-0.142,0.009,0.013,-0.026,0.030,-0.008
567,-0.110,-0.057,1.000,-0.024,-0.051,-0.045,-0.046,0.057,-0.084,0.045,-0.030,0.007,0.018,-0.023
568,-0.114,-0.017,1.000,-0.048,-0.036,-0.108,-0.018,0.090,-0.031,0.023,0.061,0.020,0.046,-0.036
569,-0.130,-0.035,1.000,-0.066,-0.039,-0.035,-0.022,0.083,-0.045,0.020,0.066,-0.014,-0.009,-0.046
570,-0.139,0.000,1.000,-0.050,-0.070,-0.052,0.009,0.051,-0.083,0.069,0.068,-0.020,0.016,-0.062
571,-0.146,-0.088,1.000,-0.069,-0.114,-0.027,-0.007,0.010,-0.057,0.074,0.049,-0.085,-0.040,-0.079
572,-0.160,-0.029,1.000,-0.042,-0.130,0.007,-0.049,0.003,0.033,0.039,-0.006,-0.119,-0.049,-0.102
573,-0.174,-0.024,1.000,-0.028,-0.102,-0.002,-0.045,-0.013,-0.009,0.022,-0.008,-0.136,-0.043,-0.103
574,-0.193,-0.077,1.000,-0.070,-0.097,-0.033,-0.078,-0.002,-0.044,-0.019,-0.010,-0.080,-0.071,-0.088
575,-0.217,-0.092,1.000,-0.050,-0.109,-0.065,-0.061,0.010,-0.051,-0.027,-0.009,-0.081,-0.095,-0.098
576,-0.236,-0.083,1.000,-0.034,-0.151,-0.101,-0.034,0.004,-0.041,-0.036,0.057,-0.104,-0.077,-0.092
577,-0.243,-0.082,1.000,-0.121,-0.155,-0.063,-0.087,0.002,-0.044,0.038,0.025,-0.121,-0.088,-0.119
578,-0.253,-0.173,1.000,-0.068,-0.192,-0.066,-0.076,-0.010,-0.092,0.042,0.008,-0.100,-0.022,-0.132
579,-0.271,-0.163,1.000,-0.041,-0.102,-0.105,-0.012,0.021,-0.114,0.083,0.085,-0.092,0.011,-0.150
580,-0.276,-0.132,1.000,-0.062,-0.113,-0.087,0.020,0.045,-0.074,0.084,0.093,-0.159,-0.021,-0.145
581,-0.255,-0.139,1.000,-0.138,-0.096,-0.136,-0.041,0.028,-0.051,0.105,0.069,-0.171,-0.007,-0.135
582,-0.253,-0.154,1.000,-0.055,-0.085,-0.109,-0.093,0.011,-0.068,0.124,0.047,-0.179,-0.004,-0.166
583,-0.242,-0.121,1.000,-0.096,-0.045,-0.139,-0.084,-0.012,-0.074,0.115,0.019,-0.104,0.005,-0.155
584,-0.228,-0.165,1.000,-0.050,-0.041,-0.132,-0.048,0.018,-0.030,0.093,0.015,-0.093,0.007,-0.156
585,-0.239,-0.079,1.000,-0.042,-0.036,-0.093,0.011,-0.019,-0.014,0.088,-0.021,-0.033,-0.010,-0.164
586,-0.245,-0.119,1.000,-0.070,-0.015,-0.089,0.024,-0.034,-0.033,0.138,0.047,-0.020,-0.095,-0.164
587,-0.227,-0.089,1.000,-0.079,-0.051,-0.057,0.003,-0.013,-0.051,0.079,0.061,-0.048,-0.040,-0.187
588,-0.216,-0.154,1.000,-0.099,0.007,-0.122,-0.015,0.001,-0.039,0.086,0.003,-0.090,-0.077,-0.180
589,-0.224,-0.129,1.000,-0.076,-0.020,-0.095,-0.063,0.050,-0.021,0.064,-0.026,-0.132,-0.026,-0.179
590,-0.224,-0.149,1.000,-0.093,-0.044,-0.113,-0.058,0.051,-0.033,0.027,-0.051,-0.114,-0.022,-0.191
591,-0.213,-0.176,1.000,-0.119,-0.074,-0.118,-0.073,0.008,-0.043,-0.012,-0.023,-0.114,0.012,-0.205
592,-0.218,-0.175,1.000,-0.107,-0.101,-0.073,-0.082,0.010,-0.066,-0.018,-0.003,-0.195,-0.021,-0.205
593,-0.216,-0.180,1.000,-0.157,-0.138,-0.114,-0.137,0.036,-0.069,-0.009,-0.017,-0.201,0.029,-0.202
594,-0.226,-0.168,1.000,-0.060,-0.127,-0.113,-0.114,0.029,-0.077,0.042,0.005,-0.172,0.010,-0.193
595,-0.221,-0.170,1.000,-0.106,-0.135,-0.105,-0.155,0.074,-0.067,0.032,-0.018,-0.135,0.031,-0.161
596,-0.211,-0.209,1.000,-0.082,-0.141,-0.080,-0.135,0.094,-0.075,0.045,0.029,-0.171,-0.014,-0.142
597,-0.193,-0.169,1.000,-0.074,-0.158,-0.079,-0.047,0.089,-0.083,0.041,0.111,-0.124,-0.051,-0.155
598,-0.167,-0.153,1.000,-0.007,-0.118,-0.071,-0.119,0.055,-0.073,-0.033,0.077,-0.141,-0.030,-0.149
599,-0.158,-0.175,1.000,-0.077,-0.042,-0.126,-0.165,0.072,-0.060,-0.032,0.050,-0.170,-0.064,-0.126
600,-0.158,-0.129,1.000,-0.144,-0.084,-0.055,-0.162,0.067,-0.027,-0.031,0.023,-0.161,-0.065,-0.119
601,-0.157,-0.079,1.000,-0.126,-0.118,-0.045,-0.101,0.045,-0.032,-0.022,0.042,-0.174,-0.026,-0.133
602,-0.158,-0.076,1.000,-0.112,-0.099,-0.043,-0.049,0.057,0.002,-0.068,0.035,-0.134,-0.055,-0.089
603,-0.153,-0.097,1.000,-0.160,-0.093,-0.053,-0.053,0.038,0.010,-0.010,0.032,-0.163,-0.017,-0.120
604,-0.149,-0.118,1.000,-0.130,-0.117,-0.105,-0.056,0.044,0.005,-0.068,0.023,-0.171,-0.007,-0.115
605,-0.136,-0.095,1.000,-0.131,-0.081,-0.102,-0.011,0.077,0.032,-0.012,0.060,-0.173,-0.072,-0.105
606,-0.131,-0.139,1.000,-0.071,-0.058,-0.096,0.032,0.100,0.030,0.026,0.050,-0.164,-0.068,-0.111
607,-0.121,-0.060,1.000,-0.129,-0.044,-0.077,-0.055,0.088,0.046,0.046,0.072,-0.123,-0.101,-0.090
608,-0.125,-0.070,1.000,-0.148,-0.044,-0.046,-0.025,0.050,0.053,0.093,0.070,-0.190,-0.097,-0.121
609,-0.128,-0.138,1.000,-0.196,-0.022,-0.086,-0.055,0.024,0.068,0.077,0.102,-0.152,-0.077,-0.134
610,-0.127,-0.183,1.000,-0.091,-0.035,-0.044,-0.082,0.039,0.058,0.063,0.073,-0.154,-0.044,-0.120
611,-0.124,-0.131,1.000,-0.099,-0.042,-0.007,-0.093,0.033,0.037,0.046,0.131,-0.129,-0.177,-0.107
612,-0.113,-0.132,1.000,-0.122,-0.045,0.002,-0.042,0.001,-0.080,-0.010,0.052,-0.146,-0.135,-0.104
613,-0.106,-0.117,1.000,-0.080,-0.037,-0.006,-0.072,-0.025,-0.140,-0.021,-0.004,-0.180,-0.098,-0.067
614,-0.101,-0.109,1.000,-0.175,0.028,0.011,-0.090,0.015,-0.049,0.029,0.081,-0.139,-0.107,-0.076
615,-0.091,-0.057,1.000,-0.071,0.074,-0.040,-0.091,0.088,-0.009,-0.020,0.028,-0.128,-0.066,-0.051
616,-0.084,-0.116,1.000,-0.052,0.049,-0.078,-0.089,0.094,-0.002,-0.014,0.014,-0.105,-0.063,-0.030
617,-0.074,-0.101,1.000,-0.099,0.043,-0.071,-0.092,0.004,-0.010,-0.020,-0.008,-0.085,-0.032,-0.025
618,-0.076,-0.114,1.000,-0.106,0.001,-0.103,-0.086,-0.011,0.007,-0.050,-0.075,-0.066,-0.028,-0.074
619,-0.074,-0.150,1.000,-0.022,0.005,-0.050,-0.051,0.039,0.024,-0.037,-0.036,-0.095,-0.013,-0.067
620,-0.078,-0.120,1.000,-0.041,-0.070,-0.036,0.002,-0.011,0.061,-0.036,-0.002,-0.113,-0.001,-0.098
621,-0.086,-0.160,1.000,-0.072,-0.057,-0.080,0.002,0.002,0.064,-0.053,-0.005,-0.097,0.024,-0.099
622,-0.103,-0.081,1.000,-0.129,-0.039,-0.095,-0.014,0.010,-0.004,-0.035,0.037,-0.111,0.066,-0.101
623,-0.116,-0.104,1.000,-0.134,-0.069,-0.119,-0.009,0.032,0.018,-0.009,0.045,-0.133,0.037,-0.096
624,-0.125,-0.125,1.000,-0.035,-0.024,-0.126,-0.008,0.030,0.089,-0.028,0.030,-0.183,-0.010,-0.084
625,-0.134,-0.149,1.000,-0.034,-0.034,-0.022,-0.062,0.085,0.098,0.024,0.007,-0.205,-0.066,-0.064
626,-0.164,-0.164,1.000,-0.102,-0.011,-0.068,-0.050,0.116,0.051,0.045,0.001,-0.159,-0.095,-0.090
627,-0.192,-0.128,1.000,-0.132,-0.077,-0.098,-0.029,0.047,0.047,0.033,0.008,-0.133,-0.124,-0.126
628,-0.213,-0.102,1.000,-0.141,-0.080,-0.107,-0.052,0.003,0.065,0.013,0.008,-0.123,-0.131,-0.155
629,-0.228,-0.095,1.000,-0.181,-0.100,-0.093,-0.053,0.027,0.086,-0.004,-0.003,-0.090,-0.085,-0.174
630,-0.229,-0.104,1.000,-0.122,-0.159,-0.128,-0.083,0.090,0.097,0.034,-0.010,-0.088,-0.057,-0.175
631,-0.233,-0.138,1.000,-0.156,-0.132,-0.110,-0.136,0.013,-0.004,0.010,-0.020,-0.045,-0.050,-0.178
632,-0.240,-0.139,1.000,-0.168,-0.099,-0.108,-0.116,-0.010,-0.083,-0.020,-0.019,-0.058,-0.067,-0.196
633,-0.243,-0.111,1.000,-0.105,-0.125,-0.138,-0.095,0.009,-0.004,-0.021,-0.056,-0.034,-0.101,-0.201
634,-0.232,-0.154,1.000,-0.085,-0.074,-0.087,-0.083,0.039,-0.003,-0.021,-0.060,-0.016,-0.127,-0.196
635,-0.231,-0.199,1.000,-0.064,-0.087,-0.122,-0.090,-0.009,-0.031,-0.072,-0.063,-0.063,-0.072,-0.175
636,-0.216,-0.181,1.000,-0.082,-0.067,-0.071,-0.100,-0.029,-0.050,-0.122,-0.090,-0.053,-0.036,-0.137
637,-0.212,-0.110,1.000,-0.025,-0.026,-0.025,-0.050,-0.010,-0.063,-0.142,-0.067,-0.057,0.043,-0.126
638,-0.211,-0.123,1.000,-0.103,-0.071,-0.056,0.006,0.062,-0.137,-0.149,-0.059,-0.028,0.052,-0.124
639,-0.209,-0.168,1.000,-0.029,-0.034,-0.039,0.000,0.088,-0.103,-0.158,-0.068,-0.040,0.002,-0.107
640,-0.211,-0.155,1.000,-0.083,-0.039,-0.070,0.064,0.048,-0.088,-0.162,-0.081,-0.068,-0.011,-0.142
641,-0.216,-0.146,1.000,-0.107,-0.021,-0.021,0.019,0.059,-0.125,-0.152,-0.069,-0.116,-0.048,-0.109
642,-0.211,-0.097,1.000,-0.123,-0.041,0.002,-0.015,0.018,-0.108,-0.106,-0.019,-0.119,-0.058,-0.098
643,-0.209,-0.073,1.000,-0.156,0.022,-0.027,-0.027,0.018,-0.083,-0.136,0.005,-0.097,0.002,-0.088
644,-0.201,-0.074,1.000,-0.150,0.026,0.018,0.056,0.066,-0.088,-0.105,-0.032,-0.121,-0.052,-0.072
645,-0.207,-0.078,1.000,-0.121,0.041,0.061,0.057,0.021,-0.062,-0.118,-0.026,-0.078,-0.030,-0.069
646,-0.208,-0.067,1.000,-0.133,0.034,0.049,0.036,-0.084,-0.030,-0.059,-0.060,-0.070,0.000,-0.089
647,-0.194,-0.067,1.000,-0.111,0.065,0.063,0.087,-0.117,-0.041,-0.036,-0.038,-0.075,-0.012,-0.093
648,-0.163,-0.033,1.000,-0.054,0.040,0.077,0.048,-0.012,0.017,-0.029,-0.097,-0.148,-0.061,-0.092
649,-0.150,-0.056,1.000,-0.076,0.053,0.113,0.029,0.070,0.060,0.016,-0.123,-0.133,-0.030,-0.094
650,-0.120,0.002,1.000,-0.070,0.080,0.082,0.023,0.095,0.021,0.002,-0.094,-0.099,0.041,-0.071
651,-0.081,-0.015,1.000,-0.085,0.073,0.040,0.011,0.147,-0.045,0.053,-0.071,-0.169,0.082,-0.048
652,-0.063,-0.024,1.000,-0.105,0.037,0.061,0.007,0.087,-0.024,0.050,-0.055,-0.209,0.051,-0.069
653,-0.049,-0.039,1.000,0.002,0.016,0.046,-0.045,0.046,0.043,0.060,-0.088,-0.188,0.028,-0.054
654,-0.053,-0.026,1.000,-0.014,0.020,0.035,-0.012,-0.003,0.061,-0.045,-0.109,-0.160,-0.003,-0.044
655,-0.055,0.019,1.000,0.055,-0.038,0.057,0.027,-0.061,0.054,-0.021,-0.107,-0.159,-0.004,0.025
656,-0.026,-0.009,1.000,0.059,-0.023,0.012,-0.005,-0.133,0.062,-0.100,-0.049,-0.119,0.002,0.088
657,-0.014,0.029,1.000,0.089,-0.002,0.013,-0.062,-0.157,0.064,-0.059,0.007,-0.140,-0.055,0.113
658,0.008,0.102,1.000,-0.053,-0.039,-0.003,-0.005,-0.132,0.074,-0.068,0.009,-0.118,-0.046,0.091
659,0.011,0.085,1.000,0.041,-0.038,0.016,0.000,-0.119,-0.030,-0.026,-0.021,-0.088,-0.056,0.045
660,0.025,0.134,1.000,0.012,-0.042,0.026,-0.030,-0.074,-0.104,0.069,-0.035,-0.167,-0.040,0.072
661,0.027,0.067,1.000,0.004,-0.073,0.020,-0.022,-0.060,-0.094,0.016,-0.010,-0.140,0.024,0.074
662,0.032,0.092,1.000,0.008,-0.043,0.001,-0.045,-0.097,-0.034,0.025,-0.009,-0.095,0.015,0.042
663,0.034,0.018,1.000,0.026,-0.093,-0.055,-0.100,-0.089,-0.055,-0.044,-0.034,-0.079,0.031,0.028
664,0.050,0.123,1.000,0.049,-0.085,-0.042,-0.137,-0.109,-0.174,-0.018,0.022,-0.090,0.038,0.053
665,0.064,0.162,1.000,0.095,-0.088,-0.057,-0.102,-0.153,-0.257,-0.060,-0.019,-0.085,0.072,0.040
666,0.073,0.092,1.000,0.090,-0.159,-0.001,-0.059,-0.189,-0.106,0.031,-0.052,-0.090,0.033,0.060
667,0.075,0.063,1.000,0.067,-0.123,-0.033,-0.114,-0.174,-0.133,0.062,-0.008,-0.073,0.071,0.063
668,0.080,0.046,1.000,0.062,-0.153,-0.091,-0.127,-0.130,-0.208,0.046,-0.018,-0.134,0.092,0.063
669,0.071,0.045,1.000,0.058,-0.162,-0.121,-0.119,-0.117,-0.227,0.002,0.006,-0.158,0.096,0.053
670,0.080,0.042,1.000,0.077,-0.215,-0.113,-0.103,-0.096,-0.116,-0.020,-0.036,-0.201,0.038,0.076
671,0.078,-0.000,1.000,0.107,-0.141,-0.062,-0.085,-0.072,-0.089,-0.053,-0.053,-0.220,0.009,0.107
672,0.082,0.118,1.000,0.097,-0.076,-0.080,-0.088,-0.058,-0.074,-0.042,-0.007,-0.180,0.049,0.106
673,0.093,0.128,1.000,0.075,-0.066,-0.078,-0.050,-0.068,-0.062,-0.006,-0.076,-0.233,0.003,0.104
674,0.092,0.089,1.000,0.072,-0.011,-0.098,-0.104,-0.005,-0.077,0.006,-0.008,-0.172,-0.042,0.092
675,0.096,0.040,1.000,0.135,-0.057,-0.029,-0.112,-0.024,-0.057,0.016,0.043,-0.173,-0.056,0.085
676,0.092,0.005,1.000,0.144,-0.010,-0.034,-0.014,0.012,-0.067,-0.000,-0.006,-0.147,-0.116,0.089
677,0.078,0.019,1.000,0.081,0.034,-0.078,-0.015,0.041,-0.022,0.089,-0.014,-0.096,-0.074,0.072
678,0.062,0.026,1.000,0.058,0.088,-0.137,0.019,0.102,-0.017,0.065,-0.013,-0.137,-0.088,0.062
679,0.058,-0.040,1.000,0.058,0.049,-0.044,0.039,0.117,0.070,0.089,0.002,-0.126,-0.019,0.028
680,0.029,-0.047,1.000,0.019,0.044,0.015,-0.018,0.146,0.147,0.021,-0.062,-0.122,-0.027,-0.017
681,0.015,-0.072,1.000,0.023,0.065,-0.021,-0.045,0.137,0.122,0.012,-0.060,-0.121,-0.013,0.001
682,-0.013,-0.107,1.000,0.029,0.039,0.071,-0.069,0.155,0.135,0.015,-0.015,-0.176,-0.011,0.007
683,-0.020,-0.113,1.000,0.012,0.046,0.100,-0.133,0.170,0.049,0.030,-0.038,-0.213,0.002,0.019
684,-0.013,-0.098,1.000,0.037,-0.001,0.077,-0.103,0.060,-0.019,0.059,-0.016,-0.195,-0.038,0.035
685,-0.004,-0.120,1.000,-0.028,0.019,0.045,-0.106,0.083,0.021,0.009,-0.004,-0.151,-0.032,-0.005
686,-0.003,-0.064,1.000,-0.035,0.004,0.119,-0.118,0.089,-0.049,0.011,0.016,-0.119,0.028,0.031
687,-0.010,-0.076,1.000,-0.041,0.053,0.132,-0.070,0.090,-0.102,0.040,0.016,-0.140,0.004,0.037
688,-0.020,-0.119,1.000,-0.018,0.011,0.125,-0.137,0.043,-0.119,0.035,-0.015,-0.083,-0.011,0.004
689,-0.031,-0.088,1.000,-0.012,-0.036,0.076,-0.098,0.044,-0.088,0.048,-0.024,-0.059,-0.074,0.019
690,-0.053,-0.032,1.000,0.025,-0.048,0.027,-0.133,0.002,-0.118,0.083,-0.026,-0.085,-0.129,-0.003
691,-0.065,-0.035,1.000,0.125,-0.026,0.109,-0.142,-0.009,-0.116,0.084,-0.098,-0.135,-0.081,-0.016
692,-0.091,-0.048,1.000,0.081,-0.055,0.093,-0.111,-0.020,-0.136,0.059,-0.140,-0.141,-0.077,-0.028
693,-0.097,-0.082,1.000,0.010,-0.067,0.015,-0.105,-0.065,-0.227,0.101,-0.143,-0.055,-0.051,-0.037
694,-0.112,-0.142,1.000,0.014,-0.116,0.008,-0.009,-0.104,-0.144,0.111,-0.160,-0.051,-0.088,-0.053
695,-0.141,-0.103,1.000,-0.032,-0.085,-0.006,0.007,-0.013,-0.078,0.076,-0.122,-0.091,-0.015,-0.060
696,-0.153,-0.122,1.000,0.025,-0.086,0.036,0.027,0.031,-0.074,0.090,-0.117,-0.112,-0.013,-0.069
697,-0.167,-0.176,1.000,-0.054,-0.001,0.002,0.057,0.081,-0.097,0.146,-0.100,-0.066,-0.057,-0.078
698,-0.175,-0.176,1.000,0.050,0.003,-0.034,0.080,-0.039,-0.109,0.145,-0.085,-0.026,-0.087,-0.078
699,-0.201,-0.131,1.000,-0.025,-0.013,-0.030,0.031,-0.004,-0.061,0.125,-0.123,-0.072,-0.092,-0.064
700,-0.226,-0.156,1.000,0.049,-0.005,-0.028,0.058,0.010,0.000,0.151,-0.151,-0.061,-0.122,-0.075
701,-0.250,-0.209,1.000,-0.066,-0.087,-0.047,-0.000,0.035,0.013,0.090,-0.148,-0.083,-0.132,-0.099
702,-0.272,-0.171,1.000,-0.081,-0.075,-0.075,-0.024,-0.026,-0.041,0.102,-0.061,-0.098,-0.100,-0.116
703,-0.287,-0.211,1.000,-0.059,-0.075,-0.097,-0.002,-0.062,-0.070,0.094,-0.022,-0.102,-0.071,-0.129
704,-0.273,-0.174,1.000,-0.012,-0.089,-0.116,-0.032,-0.087,-0.080,0.077,-0.011,-0.117,-0.045,-0.135
705,-0.264,-0.211,1.000,-0.043,-0.088,-0.151,0.031,-0.076,-0.085,0.053,0.039,-0.099,-0.080,-0.137
706,-0.252,-0.182,1.000,-0.007,-0.041,-0.108,-0.072,-0.047,-0.124,0.039,0.020,-0.086,-0.119,-0.142
707,-0.269,-0.147,1.000,0.016,-0.066,-0.094,-0.084,-0.028,-0.087,0.070,0.039,-0.035,-0.057,-0.177
708,-0.278,-0.179,1.000,-0.040,-0.029,-0.165,-0.021,-0.042,-0.078,0.048,0.017,-0.044,-0.118,-0.162
709,-0.279,-0.205,1.000,-0.034,-0.031,-0.140,-0.037,-0.042,-0.139,0.062,0.025,-0.078,-0.115,-0.149
710,-0.262,-0.176,1.000,-0.036,-0.083,-0.194,-0.004,-0.028,-0.137,0.057,-0.024,-0.108,-0.104,-0.149
711,-0.243,-0.298,1.000,-0.041,-0.192,-0.205,-0.008,0.027,-0.099,-0.072,-0.185,-0.165,-0.048,-0.143
712,-0.250,-0.231,1.000,-0.015,-0.155,-0.164,-0.058,0.082,-0.142,0.005,-0.089,-0.134,-0.008,-0.159
713,-0.256,-0.267,1.000,-0.063,-0.168,-0.167,-0.015,0.021,-0.125,0.051,-0.114,-0.113,-0.021,-0.167
714,-0.269,-0.267,1.000,-0.104,-0.167,-0.144,-0.006,-0.024,-0.136,-0.005,-0.150,-0.100,-0.060,-0.172
715,-0.288,-0.252,1.000,-0.108,-0.100,-0.143,0.016,-0.030,-0.172,0.024,-0.142,-0.043,-0.142,-0.162
716,-0.297,-0.187,1.000,-0.115,-0.130,-0.154,0.053,-0.038,-0.130,-0.028,-0.197,-0.036,-0.092,-0.190
717,-0.300,-0.256,1.000,-0.060,-0.127,-0.118,0.002,-0.067,-0.131,-0.069,-0.153,-0.035,-0.061,-0.173
718,-0.281,-0.216,1.000,-0.048,-0.067,-0.115,-0.018,-0.070,-0.103,-0.089,-0.196,-0.076,-0.018,-0.173
719,-0.268,-0.198,1.000,-0.073,-0.018,-0.118,-0.094,-0.017,-0.118,-0.065,-0.192,-0.006,0.039,-0.149
720,-0.253,-0.161,1.000,-0.108,-0.113,-0.096,-0.153,-0.002,-0.179,-0.054,-0.150,-0.053,0.049,-0.140
721,-0.248,-0.099,1.000,-0.101,-0.120,-0.072,-0.132,0.011,-0.209,-0.026,-0.171,-0.072,0.098,-0.143
722,-0.222,-0.133,1.000,-0.065,-0.045,-0.051,-0.081,0.069,-0.220,-0.044,-0.122,-0.106,0.029,-0.138
723,-0.203,-0.104,1.000,-0.075,-0.072,-0.046,-0.048,0.089,-0.164,-0.028,-0.116,-0.135,0.077,-0.101
724,-0.201,-0.183,1.000,-0.127,-0.097,-0.082,-0.063,0.064,-0.056,-0.059,-0.106,-0.104,0.078,-0.078
725,-0.206,-0.081,1.000,-0.060,-0.097,-0.043,-0.101,-0.025,0.009,-0.149,-0.130,-0.110,-0.007,-0.055
726,-0.221,-0.168,1.000,-0.061,-0.093,-0.022,-0.111,-0.024,0.092,-0.197,-0.092,-0.097,-0.015,-0.066
727,-0.242,-0.196,1.000,-0.054,-0.161,-0.064,-0.077,0.037,0.084,-0.273,-0.099,-0.096,-0.040,-0.128
728,-0.247,-0.159,1.000,-0.055,-0.079,-0.041,-0.093,0.139,0.021,-0.128,-0.099,-0.108,-0.013,-0.118
729,-0.259,-0.157,1.000,-0.015,0.029,-0.030,-0.059,0.105,-0.007,-0.038,-0.083,-0.044,-0.028,-0.130
730,-0.279,-0.151,1.000,-0.105,-0.002,-0.035,-0.009,0.119,-0.048,-0.023,-0.101,-0.049,-0.024,-0.128
731,-0.301,-0.177,1.000,-0.069,0.102,-0.028,0.038,0.067,-0.038,0.008,-0.111,-0.077,-0.046,-0.155
732,-0.282,-0.213,1.000,-0.054,0.037,-0.029,-0.031,0.088,-0.061,-0.065,-0.127,-0.095,0.051,-0.175
733,-0.268,-0.188,1.000,-0.108,0.055,-0.035,0.001,0.137,-0.060,-0.042,-0.115,-0.092,0.050,-0.162
734,-0.260,-0.159,1.000,-0.075,0.028,-0.052,-0.048,0.157,0.018,-0.025,-0.114,-0.114,0.020,-0.168
735,-0.258,-0.163,1.000,-0.096,0.010,0.007,-0.012,0.113,0.046,-0.030,-0.160,-0.126,-0.027,-0.133
736,-0.245,-0.152,1.000,-0.088,-0.113,-0.011,-0.019,0.068,-0.014,-0.004,-0.221,-0.113,-0.076,-0.152
737,-0.217,-0.171,1.000,-0.075,-0.162,0.009,-0.062,0.049,-0.059,-0.082,-0.144,-0.099,-0.023,-0.111
738,-0.209,-0.162,1.000,-0.156,-0.064,-0.053,-0.060,0.010,-0.004,-0.027,-0.181,-0.102,-0.018,-0.084
739,-0.198,-0.126,1.000,-0.059,-0.099,0.001,-0.083,-0.051,-0.073,0.022,-0.199,-0.090,0.019,-0.062
740,-0.196,-0.108,1.000,-0.042,-0.144,0.059,-0.021,-0.148,-0.097,0.012,-0.109,-0.092,-0.007,-0.062
741,-0.187,-0.120,1.000,0.004,-0.169,-0.010,-0.053,-0.057,-0.061,0.009,-0.061,-0.030,0.022,-0.074
742,-0.178,-0.167,1.000,-0.033,-0.256,0.008,0.001,-0.019,-0.105,-0.046,-0.153,-0.054,0.001,-0.093
743,-0.168,-0.144,1.000,-0.009,-0.254,-0.071,-0.032,-0.073,-0.133,-0.094,-0.119,-0.109,-0.023,-0.070
744,-0.153,-0.097,1.000,-0.020,-0.244,-0.015,-0.086,-0.151,-0.169,-0.102,-0.081,-0.167,0.013,-0.043
745,-0.132,-0.158,1.000,-0.022,-0.188,-0.044,-0.128,-0.205,-0.184,-0.173,-0.106,-0.162,0.051,-0.008
746,-0.103,-0.121,1.000,-0.051,-0.193,-0.043,-0.048,-0.177,-0.114,-0.075,-0.135,-0.131,0.051,0.024
747,-0.096,-0.052,1.000,-0.093,-0.185,0.109,-0.035,-0.208,-0.023,0.015,-0.135,-0.158,0.010,-0.017
748,-0.105,-0.094,1.000,-0.071,-0.175,0.061,-0.023,-0.202,-0.079,-0.026,-0.031,-0.071,0.018,-0.005
749,-0.128,-0.080,1.000,-0.149,-0.171,-0.013,-0.043,-0.231,-0.188,-0.072,-0.113,-0.012,-0.051,0.007
750,-0.133,-0.037,1.000,-0.089,-0.218,0.008,-0.090,-0.343,-0.226,-0.100,-0.203,-0.082,-0.080,-0.017
751,-0.112,-0.116,1.000,-0.084,-0.282,0.073,-0.088,-0.319,-0.135,-0.087,-0.144,-0.108,-0.150,0.013
752,-0.124,-0.103,1.000,-0.083,-0.212,0.005,-0.135,-0.126,0.001,-0.060,-0.097,-0.081,-0.182,-0.009
753,-0.125,-0.124,1.000,-0.144,-0.182,0.015,-0.052,-0.158,0.078,-0.156,-0.090,-0.044,-0.210,-0.007
754,-0.107,-0.117,1.000,-0.118,-0.124,0.061,-0.074,-0.021,0.004,-0.162,-0.119,-0.030,-0.211,0.014
755,-0.108,-0.103,1.000,-0.147,-0.059,0.054,-0.066,-0.057,0.017,-0.065,-0.092,-0.046,-0.213,-0.007
756,-0.108,-0.036,1.000,-0.150,0.035,0.147,-0.077,0.001,0.010,0.001,-0.122,-0.014,-0.273,-0.000
757,-0.097,-0.075,1.000,-0.124,0.008,0.080,-0.114,0.026,-0.016,-0.038,-0.127,0.032,-0.165,-0.016
758,-0.107,-0.093,1.000,-0.040,-0.064,0.096,-0.188,-0.059,-0.034,-0.025,-0.110,0.044,-0.105,-0.037
759,-0.109,-0.134,1.000,-0.104,-0.024,0.148,-0.148,-0.024,-0.036,-0.055,-0.082,-0.026,0.018,-0.032
760,-0.087,-0.087,1.000,-0.024,-0.115,0.105,-0.143,-0.104,-0.022,-0.171,-0.048,0.021,0.054,-0.029
761,-0.073,-0.062,1.000,-0.075,-0.055,0.048,-0.080,-0.076,-0.011,-0.224,-0.048,0.020,0.137,0.068
762,-0.061,-0.086,1.000,-0.014,-0.120,0.022,-0.141,-0.039,-0.020,-0.128,-0.064,-0.000,0.083,0.036
763,-0.040,-0.014,1.000,-0.031,-0.074,0.035,-0.169,-0.005,0.018,-0.117,-0.024,-0.039,0.094,0.032
764,-0.020,-0.047,1.000,-0.054,-0.057,0.034,-0.039,0.058,-0.005,-0.077,-0.053,-0.005,0.074,0.007
765,0.006,0.008,1.000,-0.068,-0.036,0.086,-0.064,0.142,-0.022,-0.024,0.020,0.028,-0.009,-0.007
766,0.027,-0.013,1.000,-0.000,0.003,0.088,-0.026,0.157,-0.030,-0.007,-0.028,0.064,0.019,0.022
767,0.026,0.003,1.000,-0.079,-0.009,0.088,-0.069,0.121,-0.122,-0.103,-0.038,0.020,-0.055,0.009
768,0.053,0.034,1.000,-0.080,-0.048,0.017,-0.041,0.160,-0.155,-0.099,-0.008,0.050,-0.087,-0.007
769,0.044,0.004,1.000,-0.029,-0.075,0.021,0.099,0.092,-0.189,0.001,-0.018,0.034,-0.081,0.018
770,0.022,0.036,1.000,-0.068,-0.091,0.060,0.048,0.048,-0.175,-0.051,-0.098,-0.001,-0.064,0.021
771,0.019,-0.007,1.000,-0.026,-0.072,0.052,0.125,0.031,-0.168,-0.037,-0.145,-0.056,-0.080,0.012
772,0.017,-0.073,1.000,-0.142,-0.016,-0.009,0.127,-0.087,-0.089,0.061,-0.087,-0.140,0.031,0.018
773,0.040,0.017,1.000,-0.049,-0.026,-0.034,0.084,-0.056,-0.032,0.113,-0.094,-0.094,0.051,-0.028
774,0.037,-0.017,1.000,-0.056,0.035,0.080,0.098,-0.001,0.024,0.028,-0.114,-0.006,-0.008,-0.018
775,0.031,0.002,1.000,-0.001,0.002,-0.028,0.059,-0.054,0.011,-0.022,-0.130,0.043,-0.041,-0.030
776,0.028,-0.014,1.000,0.012,0.030,-0.013,-0.026,-0.073,-0.005,-0.042,-0.096,0.066,-0.037,-0.021
777,0.041,0.024,1.000,0.025,-0.020,-0.108,-0.041,-0.029,-0.091,-0.133,-0.125,0.051,-0.065,-0.047
778,0.069,0.046,1.000,0.060,-0.003,-0.112,-0.002,-0.102,-0.089,-0.068,-0.127,0.087,-0.019,-0.049
779,0.099,0.038,1.000,-0.016,0.025,-0.085,0.090,-0.150,-0.007,0.063,-0.048,0.039,-0.079,-0.011
780,0.145,-0.007,1.000,0.009,-0.044,-0.109,0.126,-0.115,0.014,0.163,-0.028,-0.047,-0.136,0.022
781,0.186,0.120,1.000,0.030,0.120,-0.009,0.087,-0.160,-0.028,0.181,0.007,-0.024,-0.086,0.096
782,0.206,0.048,1.000,0.115,0.038,-0.063,0.088,-0.068,-0.050,0.295,0.115,-0.061,-0.121,0.057
783,0.230,0.054,1.000,0.005,0.090,-0.088,0.070,0.008,-0.091,0.098,0.129,0.037,-0.155,0.136
784,0.215,0.057,1.000,0.090,0.040,-0.111,-0.024,0.051,0.005,0.072,0.103,0.121,-0.024,0.158
785,0.215,0.134,1.000,0.054,0.130,-0.120,-0.069,-0.055,0.154,0.077,0.112,0.139,-0.022,0.050
786,0.247,0.080,1.000,-0.003,0.138,-0.034,-0.002,-0.101,0.101,0.107,0.192,0.119,-0.037,0.087
787,0.253,0.042,1.000,-0.035,0.155,-0.054,0.016,-0.074,0.046,0.189,0.122,0.096,0.023,0.023
788,0.248,0.050,1.000,0.080,0.203,-0.027,0.031,-0.041,-0.025,0.303,-0.006,0.092,0.051,0.073
789,0.229,-0.020,1.000,-0.041,0.060,0.104,0.023,-0.089,-0.043,0.124,-0.012,0.113,0.111,0.103
790,0.231,0.048,1.000,0.027,0.079,0.012,0.057,-0.070,-0.093,0.056,-0.029,0.103,0.143,0.204
791,0.258,0.059,1.000,0.026,-0.010,-0.065,-0.050,-0.038,-0.152,-0.029,-0.074,0.092,0.074,0.201
792,0.280,0.040,1.000,0.076,-0.008,0.080,-0.103,-0.100,-0.130,0.049,-0.203,0.019,0.061,0.163
793,0.264,0.044,1.000,0.055,-0.080,0.064,-0.238,0.003,-0.120,0.096,-0.190,0.116,-0.002,0.156
794,0.251,0.092,1.000,0.062,-0.076,0.067,-0.255,0.016,-0.152,0.013,-0.259,0.047,0.130,0.164
795,0.269,0.097,1.000,0.080,-0.102,0.126,-0.071,-0.121,-0.160,0.064,-0.258,0.073,0.066,0.176
796,0.256,0.061,1.000,0.046,-0.046,0.062,-0.126,-0.185,-0.197,0.023,-0.220,0.195,-0.061,0.206
797,0.230,0.128,1.000,0.091,0.033,0.121,-0.043,-0.125,-0.039,-0.026,-0.256,0.172,-0.108,0.156
798,0.227,0.056,1.000,0.096,-0.125,0.093,-0.125,-0.103,-0.022,0.048,-0.101,0.030,-0.173,0.191
799,0.217,0.006,1.000,0.065,-0.116,0.083,-0.040,-0.080,0.034,-0.027,-0.092,-0.029,-0.174,0.196
800,0.193,0.100,1.000,0.109,-0.127,0.086,-0.074,-0.096,-0.043,-0.057,-0.034,0.043,-0.139,0.241
801,0.138,-0.033,1.000,0.033,-0.007,0.165,-0.020,-0.072,0.051,-0.001,0.030,0.040,-0.111,0.207
802,0.042,0.075,1.000,0.024,0.065,0.144,0.011,0.034,0.136,-0.110,0.006,0.011,0.011,0.075
803,-0.020,-0.003,1.000,-0.013,0.096,0.096,0.032,0.058,0.078,-0.020,0.012,-0.129,0.155,0.036
804,-0.067,-0.029,1.000,-0.044,0.122,0.073,0.074,0.151,0.051,0.038,0.085,0.037,0.027,-0.045
805,-0.071,-0.026,1.000,-0.106,0.059,0.071,-0.017,0.154,0.028,0.017,0.153,0.071,0.029,-0.014
806,-0.079,-0.060,1.000,-0.051,0.057,0.129,0.074,0.027,0.045,-0.046,0.085,0.040,0.037,0.102
807,-0.077,-0.030,1.000,-0.060,0.138,0.094,0.086,0.053,0.126,-0.127,0.043,0.044,0.036,0.109
808,-0.078,-0.038,1.000,-0.062,0.060,0.030,0.109,0.059,0.126,-0.182,0.068,0.097,0.042,0.032
809,-0.080,-0.059,1.000,-0.011,0.039,0.050,0.132,0.137,0.157,-0.204,0.095,0.076,0.070,-0.005
810,-0.081,0.007,1.000,0.032,0.118,0.052,0.147,0.120,0.157,-0.161,0.091,0.046,0.089,-0.044
811,-0.107,0.046,1.000,0.059,0.203,0.031,0.044,0.022,0.174,-0.083,0.003,0.022,0.109,-0.122
812,-0.136,0.010,1.000,0.102,0.196,0.013,0.009,0.189,0.117,-0.015,-0.131,0.097,0.165,-0.140
813,-0.169,0.070,1.000,0.029,0.107,-0.009,0.021,0.274,0.058,-0.082,-0.037,0.152,0.074,-0.160
814,-0.181,0.011,1.000,0.107,0.094,-0.055,0.013,0.156,0.076,-0.065,-0.013,0.037,0.102,-0.167
815,-0.213,-0.028,1.000,0.036,0.050,0.014,-0.010,0.110,0.116,-0.147,0.050,0.008,0.098,-0.228
816,-0.243,-0.087,1.000,0.078,0.003,-0.042,0.026,0.120,0.155,-0.203,0.105,-0.037,0.010,-0.252
817,-0.248,-0.042,1.000,0.035,-0.054,-0.134,-0.054,0.098,0.091,-0.059,0.034,-0.004,-0.031,-0.289
818,-0.247,-0.017,1.000,0.057,0.005,-0.043,0.033,0.077,0.021,0.015,-0.018,0.070,-0.039,-0.282
819,-0.253,-0.014,1.000,-0.028,0.050,-0.018,-0.052,0.062,-0.025,-0.025,0.060,0.017,0.005,-0.300
820,-0.247,-0.072,1.000,0.061,-0.011,0.040,-0.078,-0.026,0.059,-0.115,0.041,0.011,-0.027,-0.240
821,-0.237,-0.154,1.000,-0.027,-0.038,-0.015,-0.076,-0.084,0.092,-0.011,0.144,-0.006,-0.042,-0.211
822,-0.247,-0.042,1.000,-0.034,-0.015,0.012,-0.091,-0.075,0.030,-0.068,0.138,0.046,-0.058,-0.270
823,-0.231,0.006,1.000,-0.089,-0.035,0.087,0.021,-0.036,0.055,-0.130,0.138,0.159,-0.032,-0.281
824,-0.226,-0.184,1.000,-0.063,0.002,0.117,0.022,-0.085,0.087,-0.072,0.251,0.081,-0.005,-0.292
825,-0.238,-0.101,1.000,-0.086,0.092,0.011,0.052,-0.154,0.144,-0.037,0.173,0.071,0.045,-0.231
826,-0.209,0.043,1.000,-0.054,0.142,-0.074,0.005,-0.020,0.193,-0.106,0.143,0.096,0.081,-0.230
827,-0.192,0.032,1.000,-0.104,0.236,0.088,0.009,0.004,0.166,-0.282,0.145,0.083,0.126,-0.184
828,-0.179,0.054,1.000,-0.051,0.241,0.117,-0.107,0.098,0.090,-0.114,0.110,0.092,0.033,-0.153
829,-0.183,0.029,1.000,0.024,0.241,0.045,-0.179,0.024,0.171,0.018,0.082,0.121,-0.063,-0.191
830,-0.173,0.024,1.000,-0.029,0.195,-0.009,-0.094,-0.122,0.259,0.021,0.112,0.069,-0.143,-0.224
831,-0.155,0.107,1.000,-0.012,0.144,0.037,-0.047,-0.114,0.293,0.045,0.107,0.105,-0.164,-0.228
832,-0.109,0.086,1.000,-0.038,0.077,0.069,-0.071,-0.129,0.236,-0.030,0.037,0.085,-0.262,-0.174
833,-0.105,-0.011,1.000,-0.045,-0.050,0.018,-0.084,-0.302,0.094,-0.126,0.024,0.023,-0.108,-0.132
834,-0.072,-0.057,1.000,0.063,-0.042,0.086,-0.119,-0.387,0.168,-0.084,0.011,0.095,-0.149,-0.074
835,-0.029,0.122,1.000,0.087,-0.009,0.086,-0.056,-0.294,0.194,0.015,0.075,0.127,-0.057,0.025
836,-0.013,0.044,1.000,0.014,0.044,0.082,-0.002,-0.304,0.189,0.066,0.147,0.153,0.060,0.056
837,0.007,0.104,1.000,0.009,0.027,0.025,0.017,-0.206,0.131,0.174,0.009,0.094,0.081,0.026
838,0.039,0.078,1.000,0.085,0.014,0.044,0.073,-0.128,0.066,0.027,0.053,0.241,-0.053,-0.005
839,0.056,0.139,1.000,0.033,0.084,0.016,0.063,-0.018,0.031,-0.024,0.039,0.307,-0.012,-0.067
840,0.095,0.096,1.000,-0.004,-0.016,0.077,0.081,-0.162,0.024,-0.070,0.027,0.337,0.196,-0.032
841,0.129,0.014,1.000,0.018,-0.101,0.058,0.017,-0.135,-0.025,0.018,0.099,0.212,0.154,0.034
842,0.152,0.064,1.000,0.033,-0.134,-0.042,-0.121,-0.083,-0.117,0.048,0.131,0.093,0.243,0.102
843,0.212,0.123,1.000,0.015,-0.114,0.008,0.042,-0.061,-0.113,0.001,0.082,0.032,0.192,0.173
844,0.262,0.145,1.000,0.008,-0.161,0.082,0.058,-0.069,0.008,0.114,0.058,0.047,0.207,0.151
845,0.262,0.116,1.000,0.064,-0.085,0.133,0.180,0.089,-0.019,0.209,0.014,0.001,0.158,0.213
846,0.250,0.147,1.000,0.124,-0.154,0.078,0.193,0.049,-0.094,-0.011,0.067,0.053,0.106,0.173
847,0.224,0.090,1.000,0.076,-0.017,-0.028,0.059,0.002,-0.155,0.132,0.102,0.067,0.135,0.146
848,0.233,0.140,1.000,0.107,-0.043,0.005,0.229,-0.056,-0.046,0.126,0.090,0.065,0.028,0.108
849,0.239,0.029,1.000,0.168,0.018,0.013,0.272,0.170,-0.075,-0.103,0.168,0.105,-0.001,0.072
850,0.234,0.076,1.000,0.096,-0.007,-0.012,0.162,0.354,-0.008,-0.074,0.200,0.180,-0.019,0.159
851,0.219,0.010,1.000,0.134,0.030,-0.107,0.146,0.362,0.050,-0.074,0.091,0.103,-0.103,0.260
852,0.234,0.115,1.000,0.113,0.092,0.006,0.138,0.282,0.123,-0.120,0.069,0.097,-0.123,0.258
853,0.234,0.196,1.000,0.059,0.108,-0.110,0.139,0.047,0.136,0.033,0.041,-0.009,-0.111,0.150
854,0.236,0.191,1.000,0.079,0.170,0.129,0.169,0.205,0.177,0.187,0.031,-0.088,-0.114,0.107
855,0.233,0.210,1.000,0.093,0.236,-0.079,0.192,0.194,0.215,0.185,0.114,-0.017,-0.191,0.115
856,0.191,0.079,1.000,0.089,0.299,-0.136,0.344,0.173,0.225,-0.025,0.153,-0.022,-0.119,0.100
857,0.133,0.200,1.000,0.153,0.348,0.053,0.378,0.303,0.317,-0.053,0.005,0.100,-0.238,0.069
858,0.148,0.114,1.000,0.120,0.307,-0.039,0.228,0.082,0.346,-0.078,0.037,0.123,0.062,0.127
859,0.169,0.128,1.000,0.057,0.293,0.071,0.067,0.084,0.246,-0.085,0.209,0.053,0.019,0.069
860,0.208,0.136,1.000,0.015,0.244,0.039,0.032,0.024,0.141,0.189,0.245,0.058,0.080,0.168
861,0.252,0.197,1.000,0.085,0.184,0.038,-0.010,0.006,0.133,0.272,0.304,0.066,0.126,0.282
862,0.254,0.141,1.000,0.091,0.125,0.045,0.155,-0.038,0.038,0.273,0.318,-0.065,0.135,0.209
863,0.253,0.133,1.000,0.186,0.090,0.125,0.100,-0.017,0.122,0.307,0.323,-0.012,0.006,0.228
864,0.180,0.101,1.000,0.128,0.119,0.097,0.077,-0.049,0.139,0.344,0.330,-0.022,0.062,0.162
865,0.163,0.117,1.000,0.178,0.081,0.011,0.088,-0.134,0.242,0.018,0.373,-0.009,0.105,0.164
866,0.168,0.135,1.000,0.104,0.116,0.038,0.064,-0.277,0.101,0.060,0.363,0.222,0.067,0.192
867,0.195,0.131,1.000,0.115,0.178,0.060,0.005,-0.224,0.060,0.151,0.345,0.298,0.355,0.237
868,0.218,0.102,1.000,0.080,0.113,0.063,-0.053,-0.085,-0.040,0.219,0.245,0.265,0.339,0.189
869,0.219,0.125,1.000,0.055,0.064,0.227,-0.016,-0.147,-0.035,0.142,0.194,0.136,0.214,0.188
870,0.204,0.137,1.000,0.034,0.145,0.186,-0.018,-0.025,0.089,0.244,0.148,0.034,0.209,0.149
871,0.199,0.170,1.000,0.017,0.113,0.057,-0.089,0.017,0.133,0.263,-0.049,0.059,0.035,0.209
872,0.205,0.039,1.000,-0.062,0.031,-0.012,-0.038,0.071,0.144,0.056,-0.147,-0.003,0.028,0.220
873,0.161,0.155,1.000,-0.023,0.152,0.139,0.053,-0.052,0.151,0.061,-0.120,-0.011,-0.030,0.188
874,0.111,0.032,1.000,-0.070,0.014,0.232,0.105,0.008,-0.030,-0.136,-0.073,0.052,-0.081,0.120
875,0.086,0.041,1.000,-0.035,0.087,0.242,0.163,-0.176,0.012,-0.292,-0.095,0.012,0.021,0.093
876,0.036,0.013,1.000,-0.083,0.187,0.177,0.023,-0.031,-0.050,-0.142,-0.035,0.066,0.183,-0.033
877,0.032,-0.105,1.000,-0.013,0.144,0.031,0.106,0.009,-0.040,-0.020,0.152,0.038,0.156,-0.006
878,0.059,-0.108,1.000,-0.117,0.113,-0.082,0.202,0.022,0.023,-0.051,0.189,-0.006,0.097,0.028
879,0.060,-0.039,1.000,-0.102,0.086,0.082,0.171,-0.060,0.080,-0.171,0.194,0.015,-0.038,0.000
880,0.106,-0.018,1.000,-0.043,0.265,0.009,0.061,-0.113,0.085,-0.238,0.135,-0.049,-0.139,0.029
881,0.117,-0.041,1.000,-0.019,0.270,0.000,0.115,-0.119,0.106,-0.079,0.147,-0.064,-0.005,0.032
882,0.101,0.122,1.000,-0.029,0.347,0.015,0.150,-0.087,0.156,-0.033,0.191,-0.014,-0.002,0.006
883,0.074,0.004,1.000,-0.013,0.346,0.010,0.180,-0.083,0.189,0.018,0.345,0.063,0.054,-0.080
884,0.007,0.059,1.000,0.057,0.447,0.134,0.137,-0.099,0.180,0.046,0.327,0.136,0.154,-0.109
885,-0.002,0.048,1.000,0.047,0.490,-0.014,0.083,0.023,0.145,0.268,0.142,0.093,0.235,-0.178
886,0.015,0.073,1.000,0.027,0.297,-0.013,0.114,0.092,0.100,0.371,0.092,0.112,0.182,-0.134
887,0.054,0.140,1.000,0.020,0.224,-0.063,0.076,0.199,0.048,-0.010,-0.027,0.101,0.010,-0.053
888,0.077,0.166,1.000,-0.014,0.009,-0.005,0.030,0.155,0.014,0.038,-0.041,0.131,-0.126,-0.081
889,0.103,0.203,1.000,-0.007,0.071,-0.066,-0.016,0.227,-0.095,-0.086,-0.177,0.038,-0.101,-0.050
890,0.102,0.139,1.000,0.015,0.001,-0.218,-0.132,0.306,-0.013,0.071,-0.084,-0.029,-0.135,-0.139
891,0.048,0.154,1.000,-0.063,-0.129,-0.184,-0.056,0.242,-0.006,-0.075,-0.071,-0.005,-0.108,-0.193
892,0.014,-0.007,1.000,-0.036,-0.146,-0.084,0.063,0.186,0.146,-0.113,-0.089,-0.004,-0.078,-0.182
893,-0.005,-0.140,1.000,0.069,-0.131,0.049,0.025,0.066,0.199,-0.111,-0.069,0.112,-0.004,-0.147
894,-0.013,-0.008,1.000,-0.035,-0.169,-0.008,0.044,0.054,0.166,-0.181,-0.046,0.087,-0.134,-0.157
895,-0.006,-0.021,1.000,-0.013,-0.141,0.051,0.072,0.003,0.025,-0.048,-0.034,0.246,-0.051,0.087
896,-0.011,0.077,1.000,-0.085,-0.170,-0.059,0.082,0.106,-0.097,-0.148,0.134,0.165,-0.126,0.223
897,-0.048,-0.035,1.000,0.049,-0.049,-0.083,0.092,0.138,-0.134,0.024,0.197,0.158,-0.047,0.106
898,-0.055,0.002,1.000,-0.050,-0.043,-0.078,0.183,0.151,-0.096,-0.292,0.140,0.068,0.171,-0.015
899,-0.063,0.129,1.000,0.092,-0.049,-0.007,0.027,0.162,-0.074,-0.076,0.186,0.108,0.210,-0.123
900,-0.085,0.089,1.000,0.003,0.116,-0.028,0.084,0.115,0.023,-0.072,0.204,0.202,0.298,-0.198
901,-0.124,0.097,1.000,0.138,0.106,-0.135,0.075,0.071,0.113,-0.024,0.221,-0.095,0.185,-0.184
902,-0.160,0.053,1.000,0.036,0.090,-0.073,0.139,0.161,0.164,0.010,0.159,0.176,0.159,-0.151
903,-0.177,0.059,1.000,0.061,0.101,0.044,0.090,0.209,0.114,0.060,0.072,0.125,-0.005,-0.149
904,-0.153,-0.018,1.000,0.005,0.085,-0.023,0.257,0.121,0.116,0.076,-0.076,0.117,-0.030,-0.143
905,-0.109,-0.051,1.000,0.008,0.156,0.033,0.331,0.102,0.121,-0.126,-0.088,0.150,0.018,-0.156
906,-0.078,-0.152,1.000,0.050,0.336,0.025,0.295,0.151,0.135,0.040,-0.055,0.084,0.162,-0.071
907,-0.021,-0.133,1.000,-0.046,0.352,0.021,0.113,0.043,0.110,0.086,0.003,0.089,0.362,0.008
908,-0.022,-0.242,1.000,0.013,0.424,0.147,0.281,0.097,0.246,0.222,0.083,0.178,0.279,0.019
909,-0.055,-0.301,1.000,-0.018,0.498,0.061,0.321,0.094,0.381,0.122,0.095,0.126,0.436,0.032
910,-0.115,-0.196,1.000,0.003,0.416,0.073,0.375,0.111,0.408,0.181,0.109,0.177,0.357,0.020
911,-0.123,-0.096,1.000,-0.046,0.282,0.035,0.061,0.003,0.334,0.019,0.090,0.175,0.256,-0.017
912,-0.096,-0.365,1.000,-0.025,0.225,0.008,0.078,-0.039,0.287,-0.021,0.167,0.197,0.134,0.075
913,-0.073,-0.172,1.000,-0.057,0.126,0.001,0.282,-0.061,0.155,0.045,0.108,0.088,0.174,0.079
914,-0.049,-0.129,1.000,-0.108,0.100,0.067,0.320,-0.037,0.064,0.159,0.145,-0.008,0.124,0.053
915,-0.026,-0.056,1.000,-0.124,-0.021,0.095,0.201,-0.043,0.043,-0.045,0.062,0.028,0.043,0.157
916,-0.017,-0.109,1.000,-0.027,-0.137,0.114,0.188,0.004,0.061,-0.030,0.059,0.059,0.058,0.266
917,-0.063,0.011,1.000,-0.142,-0.087,0.045,0.370,0.021,0.047,0.156,0.142,0.077,-0.018,0.184
918,-0.048,0.037,1.000,-0.133,-0.129,0.084,0.253,-0.025,-0.128,-0.204,0.013,0.051,-0.075,0.159
919,-0.097,0.055,1.000,-0.090,-0.143,0.003,0.275,-0.127,-0.196,0.059,0.122,0.029,-0.320,0.050
920,-0.149,0.073,1.000,0.004,-0.095,-0.065,0.012,-0.201,-0.063,0.001,0.169,-0.011,-0.361,-0.096
921,-0.162,0.091,1.000,0.029,-0.110,0.006,0.249,-0.233,0.115,0.066,-0.044,0.156,-0.324,-0.088
922,-0.162,-0.068,1.000,-0.187,-0.152,-0.058,0.218,-0.375,0.053,-0.276,-0.121,0.077,-0.153,0.027
923,-0.156,-0.079,1.000,-0.124,-0.122,-0.080,0.123,-0.206,-0.036,-0.110,-0.159,-0.022,0.076,-0.020
924,-0.111,0.118,1.000,-0.101,-0.235,-0.049,0.203,-0.303,-0.227,-0.190,-0.092,-0.048,0.115,-0.069
925,-0.092,0.145,1.000,-0.048,-0.068,-0.093,0.319,-0.185,-0.221,-0.125,-0.204,0.021,0.083,-0.140
926,-0.102,0.061,1.000,-0.129,-0.056,0.023,0.251,-0.237,-0.127,-0.027,-0.324,0.066,0.058,-0.144
927,-0.124,0.088,1.000,0.017,-0.004,0.033,0.168,-0.290,-0.077,0.058,-0.226,0.068,0.005,-0.167
928,-0.238,-0.008,1.000,-0.065,0.126,-0.006,0.081,-0.254,0.048,-0.059,-0.166,-0.040,0.069,-0.240
929,-0.296,-0.170,1.000,-0.032,0.152,-0.028,-0.060,-0.208,0.261,-0.255,-0.131,0.232,0.130,-0.265
930,-0.296,-0.164,1.000,-0.102,0.237,-0.105,0.179,-0.191,0.224,-0.213,-0.177,0.008,0.136,-0.252
931,-0.267,0.088,1.000,-0.067,0.285,-0.113,0.261,0.033,0.215,-0.261,-0.123,0.175,0.138,-0.246
932,-0.201,0.062,1.000,0.014,0.271,-0.017,0.031,0.078,0.026,-0.070,-0.105,0.066,0.192,-0.165
933,-0.055,-0.167,1.000,0.091,0.166,0.003,0.037,0.041,0.151,0.097,-0.216,0.186,0.055,-0.107
934,0.043,-0.040,1.000,0.019,0.197,0.147,0.101,0.191,0.126,-0.044,-0.157,0.080,0.199,-0.120
935,0.128,-0.025,1.000,0.058,0.073,-0.021,-0.028,0.301,0.097,0.106,-0.202,0.037,0.220,-0.015
936,0.102,0.215,1.000,0.137,0.136,-0.044,0.054,0.386,0.009,0.162,-0.106,-0.006,0.262,-0.071
937,0.053,-0.041,1.000,-0.012,0.273,0.174,0.008,0.271,0.251,-0.061,0.066,0.120,0.263,0.000
938,0.090,-0.054,1.000,0.069,0.142,0.099,0.109,0.162,0.482,-0.103,0.154,0.129,0.198,0.028
939,0.075,0.180,1.000,0.093,0.197,0.255,0.044,-0.017,0.477,0.068,0.065,0.061,0.230,-0.005
940,0.143,0.079,1.000,0.118,0.089,-0.018,0.059,0.207,0.383,-0.077,-0.014,0.015,0.385,0.030
941,0.202,0.155,1.000,0.091,0.087,0.062,0.027,0.112,0.368,-0.269,0.065,-0.001,0.445,0.009
942,0.256,0.158,1.000,0.161,0.071,0.091,0.074,0.164,0.269,-0.054,0.136,-0.085,0.361,-0.022
943,0.254,0.325,1.000,0.224,0.030,0.047,0.059,0.169,0.171,0.271,0.287,0.037,0.206,-0.024
944,0.201,0.106,1.000,0.104,-0.147,0.286,-0.087,-0.020,0.022,-0.010,0.102,0.011,0.023,-0.074
945,0.168,0.287,1.000,0.131,-0.123,0.093,0.172,0.025,-0.182,-0.066,-0.022,0.003,-0.041,-0.088
946,0.123,0.101,1.000,0.053,0.081,0.153,0.091,-0.180,-0.128,0.018,-0.186,-0.098,-0.144,0.046
947,0.124,0.174,1.000,0.090,-0.058,0.149,0.343,-0.063,-0.114,-0.087,-0.148,-0.010,-0.101,0.033
948,0.119,0.165,1.000,0.008,0.073,0.200,0.317,-0.215,0.115,-0.514,-0.107,-0.053,0.194,0.040
949,0.155,0.394,1.000,0.066,-0.111,0.229,0.240,-0.385,0.266,-0.160,-0.335,-0.238,0.175,0.163
950,0.177,0.130,1.000,-0.060,0.015,0.230,-0.015,-0.398,0.357,0.389,-0.363,0.079,0.148,0.223
951,0.195,0.001,1.000,0.031,-0.003,-0.100,0.087,-0.421,0.328,-0.049,-0.502,-0.257,0.090,0.083
952,0.206,-0.062,1.000,0.039,-0.059,0.019,0.254,-0.234,0.139,0.263,-0.234,-0.242,-0.213,0.167
953,0.258,0.430,1.000,0.069,-0.058,0.060,0.116,-0.197,-0.135,-0.043,-0.087,-0.107,-0.346,0.090
954,0.271,0.190,1.000,0.021,0.031,0.015,0.386,-0.279,-0.145,-0.036,-0.237,-0.146,-0.449,0.107
955,0.280,0.014,1.000,0.202,0.210,0.121,0.198,-0.189,-0.060,-0.141,-0.308,-0.106,-0.346,0.257
956,0.275,0.082,1.000,0.225,0.184,-0.093,0.289,-0.324,0.105,0.034,-0.466,0.031,-0.166,0.212
957,0.278,0.331,1.000,-0.041,0.295,0.201,0.309,0.137,0.177,-0.019,0.062,0.089,0.066,0.338
958,0.275,0.451,1.000,0.015,0.225,0.066,0.086,0.082,0.299,0.385,0.175,0.320,-0.038,0.280
959,0.236,0.346,1.000,0.176,0.500,0.191,-0.007,0.036,0.210,0.222,0.237,0.369,0.179,0.205
960,0.288,0.315,1.000,0.122,0.377,0.052,-0.110,0.092,0.083,-0.105,0.728,0.271,-0.100,0.258
961,0.343,0.431,1.000,0.002,0.232,-0.282,-0.118,0.199,0.193,0.074,0.476,0.148,-0.253,0.236
962,0.402,0.225,1.000,0.175,0.202,-0.096,-0.217,0.489,0.314,0.115,0.452,0.353,-0.031,0.200
963,0.413,0.290,1.000,0.117,0.384,0.031,0.183,0.360,0.231,0.100,0.330,0.197,0.114,0.175
964,0.420,0.197,1.000,0.056,0.302,0.053,0.073,0.228,0.096,0.079,0.310,-0.002,0.305,0.053
965,0.313,0.197,1.000,0.112,0.085,-0.079,0.132,-0.061,0.041,0.216,0.214,0.149,0.549,-0.061
966,0.242,-0.003,1.000,0.079,-0.050,-0.198,-0.149,-0.246,0.429,0.234,-0.174,0.319,0.402,0.120
967,0.236,0.228,1.000,0.077,-0.350,-0.082,-0.250,-0.360,0.360,0.251,-0.435,0.019,0.402,0.094
968,0.182,0.360,1.000,-0.008,-0.355,0.312,-0.190,-0.534,0.406,0.260,-0.668,-0.068,0.253,0.123
969,0.261,0.326,1.000,0.038,-0.641,0.256,-0.235,-0.569,-0.055,0.538,-0.577,-0.058,-0.046,0.197
970,0.259,0.372,1.000,-0.106,-0.743,-0.032,-0.305,-0.706,-0.030,0.150,-0.567,0.071,-0.269,0.166
971,0.184,0.392,1.000,-0.007,-0.964,-0.225,-0.028,-0.751,-0.323,-0.402,-0.401,0.149,-0.117,0.059
972,0.170,0.244,1.000,0.008,-0.916,-0.262,0.038,-0.457,-0.302,-0.182,-0.585,0.058,-0.369,0.098
973,0.122,0.395,1.000,0.039,-0.873,0.061,0.170,-0.677,-0.539,-0.683,-0.702,-0.080,-0.318,-0.063
974,-0.025,0.641,1.000,-0.048,-0.877,-0.105,0.212,-0.600,-0.604,-0.505,-0.837,0.176,-0.335,-0.112
975,-0.014,0.547,1.000,-0.037,-0.689,-0.052,0.284,-0.585,-0.403,-0.054,-0.338,0.124,-0.481,-0.018
976,-0.022,0.364,1.000,0.021,-0.514,-0.135,0.221,-0.279,-0.260,0.183,-0.175,-0.147,-0.401,0.073
977,-0.061,0.446,1.000,0.125,-0.146,-0.124,0.239,-0.112,0.076,-0.345,0.047,0.072,-0.795,0.161
978,0.004,0.467,1.000,0.168,0.126,0.210,0.392,0.210,0.054,-0.094,0.168,0.257,-0.495,0.133
979,0.029,0.740,1.000,0.289,0.503,-0.002,0.181,0.515,0.155,-0.472,0.193,0.101,-0.141,-0.049
980,0.057,0.250,1.000,0.188,0.575,0.151,0.383,0.507,0.016,-0.045,0.113,-0.013,0.082,-0.106
981,0.078,0.064,1.000,0.159,0.748,-0.029,0.202,0.323,-0.229,0.074,0.084,0.196,0.109,-0.106
982,0.060,0.187,1.000,0.040,0.793,0.064,0.322,0.203,-0.496,0.269,0.497,0.285,0.245,-0.117
983,-0.063,0.736,1.000,-0.001,0.693,-0.169,0.298,0.287,-0.313,0.073,0.586,-0.052,-0.161,-0.045
984,-0.143,0.476,1.000,0.087,0.405,-0.187,0.384,0.145,-0.220,0.392,0.528,0.153,0.183,-0.114
985,-0.140,0.415,1.000,0.082,0.096,-0.093,0.481,0.027,-0.008,0.010,0.046,0.326,0.122,-0.100
986,-0.134,0.131,1.000,-0.076,-0.096,-0.056,0.347,-0.219,0.163,-0.097,-0.040,0.484,0.155,-0.179
987,-0.027,0.367,1.000,-0.057,-0.196,0.134,0.372,-0.268,0.231,-0.091,-0.211,0.266,0.133,-0.132
988,0.094,0.563,1.000,0.097,-0.318,-0.038,0.200,-0.299,0.320,0.245,0.091,-0.061,0.180,-0.289
989,0.030,0.589,1.000,0.092,-0.318,0.145,0.328,-0.230,0.204,-0.270,-0.211,0.327,-0.289,-0.236
990,-0.132,0.183,1.000,0.183,-0.156,-0.042,0.185,-0.459,0.190,-0.291,-0.134,0.156,-0.092,-0.248
991,-0.279,0.123,1.000,0.187,-0.178,0.095,0.037,-0.470,0.183,-0.448,-0.019,-0.067,-0.107,-0.167
992,-0.433,0.451,1.000,-0.078,-0.203,-0.058,0.071,-0.316,0.047,-0.254,-0.043,0.113,0.013,-0.071
993,-0.285,0.552,1.000,-0.265,-0.134,-0.079,-0.104,-0.093,-0.161,0.070,0.264,0.464,-0.100,-0.155
994,-0.068,0.211,1.000,-0.074,0.121,0.252,-0.224,0.077,-0.045,0.441,0.213,0.143,0.015,-0.163
995,0.172,-0.213,1.000,-0.119,0.458,-0.099,0.171,0.186,0.109,0.191,1.062,-0.018,-0.256,-0.275
996,0.275,-0.613,1.000,0.205,0.419,-0.263,-0.382,0.116,0.227,-0.202,-0.111,0.249,-0.105,-0.264
997,0.041,-0.628,1.000,0.385,-0.007,-0.344,-0.391,0.100,0.455,-0.144,-0.171,0.079,0.010,-0.205
998,-0.012,-0.229,1.000,0.744,-0.484,0.257,0.522,0.082,0.378,-0.065,-0.184,-0.164,-0.251,-0.127
999,-0.190,0.007,1.000,0.744,-0.243,0.662,-1.287,0.019,0.156,0.105,-2.211,0.050,-0.043,-0.033
